; generated by PrusaSlicer 2.6.1+win64 on 2023-09-16 at 03:00:31 UTC


;
;

;
;
; 

; external perimeters extrusion width = 0.42mm
; perimeters extrusion width = 0.44mm
; infill extrusion width = 0.44mm
; solid infill extrusion width = 0.44mm
; top infill extrusion width = 0.44mm
; support material extrusion width = 0.35mm

M190 S60 ; set bed temperature and wait for it to be reached


; Pre-Processed for Cancel-Object support by preprocess_cancellation v0.2.0
; 1 known objects
EXCLUDE_OBJECT_DEFINE NAME=3DBenchy_stl_id_0_copy_0 CENTER=92.228,90.056 POLYGON=[[60.21,74.71],[60.21,105.289],[119.768,105.289],[119.768,74.71]]
M104 S215 ; set temperature
;TYPE:Custom
M117 ; Clear displays current message (This is included to avoid an error with Adaptive_Bed_Mesh
print_start EXTRUDER_TEMP=215 BED_TEMP=60
M109 S215 ; set temperature and wait for it to be reached
G21 ; set units to millimeters
G90 ; use absolute coordinates
M82 ; use absolute distances for extrusion
G92 E0
; Filament gcode
;SET_PRESSURE_ADVANCE ADVANCE=0.2
M107
;LAYER_CHANGE
;Z:0.35
;HEIGHT:0.35
TIMELAPSE_TAKE_FRAME
G1 E-.5 F2400
G92 E0
G1 Z.35 F9000
G1 Z.55
G1 X60.159 Y78.038
G1 Z.35
G1 E.5 F2400
;TYPE:Skirt/Brim
;WIDTH:0.44
G1 F900
G1 X60.811 Y77.535 E.54285
G1 X61.995 Y76.878 E.61331
G1 X63.145 Y76.444 E.67727
G1 X64.474 Y76.154 E.74805
G1 X88.607 Y74.599 E2.0064
G1 X90.279 Y74.555 E2.09343
G1 X93.211 Y74.779 E2.24644
G1 X96.019 Y75.364 E2.39569
G1 X98.73 Y76.299 E2.54491
G1 X101.3 Y77.573 E2.69417
G1 X103.794 Y79.246 E2.85044
G1 X106.043 Y81.236 E3.0067
G1 X107.869 Y83.329 E3.15123
G1 X108.721 Y84.513 E3.22713
G1 X109.522 Y85.801 E3.30605
G1 X110.204 Y87.315 E3.39245
G1 X110.572 Y88.89 E3.47661
G1 X110.646 Y89.963 E3.53258
G1 X110.586 Y91.001 E3.58668
G1 X110.246 Y92.555 E3.66945
G1 X109.514 Y94.214 E3.7638
G1 X107.958 Y96.556 E3.91011
G1 X106.296 Y98.503 E4.04331
G1 X104.51 Y100.177 E4.17068
G1 X102.892 Y101.416 E4.27672
G1 X101.424 Y102.354 E4.36737
G1 X99.789 Y103.225 E4.46376
G1 X97.988 Y103.995 E4.56568
G1 X96.156 Y104.599 E4.66605
G1 X94.241 Y105.05 E4.76842
G1 X92.306 Y105.333 E4.87018
G1 X90.364 Y105.444 E4.9714
G1 X88.177 Y105.375 E5.08526
G1 X64.396 Y103.836 E6.32528
G1 X62.645 Y103.39 E6.4193
G1 X61.417 Y102.83 E6.48953
G1 X60.338 Y102.13 E6.55646
G1 X58.986 Y100.848 E6.65341
G1 X58.241 Y99.837 E6.71876
G1 X57.649 Y98.73 E6.78408
G1 X57.218 Y97.549 E6.8495
G1 X56.969 Y96.407 E6.91032
G1 X56.866 Y95.051 E6.98108
G1 X56.871 Y84.692 E7.5201
G1 X57.1 Y82.906 E7.61379
G1 X57.689 Y81.182 E7.70859
G1 X58.593 Y79.648 E7.80124
G1 X59.807 Y78.309 E7.89529
G1 X60.112 Y78.074 E7.91532
G1 X60.334 Y78.362 F9000
G1 F900
G1 X61.01 Y77.841 E7.95973
G1 X62.15 Y77.208 E8.02758
G1 X63.252 Y76.793 E8.08885
G1 X64.526 Y76.515 E8.1567
G1 X88.63 Y74.963 E9.41353
G1 X90.278 Y74.92 E9.49931
G1 X93.16 Y75.14 E9.64971
G1 X95.925 Y75.717 E9.79668
G1 X98.588 Y76.635 E9.94325
G1 X101.118 Y77.889 E10.09018
G1 X103.572 Y79.536 E10.24396
G1 X105.785 Y81.494 E10.39771
G1 X107.578 Y83.55 E10.53966
G1 X109.206 Y85.984 E10.69203
G1 X109.857 Y87.429 E10.7745
G1 X110.211 Y88.941 E10.8553
G1 X110.281 Y89.963 E10.9086
G1 X110.224 Y90.954 E10.96025
G1 X109.897 Y92.447 E11.03978
G1 X109.199 Y94.031 E11.12985
G1 X107.666 Y96.337 E11.27394
G1 X106.032 Y98.251 E11.40489
G1 X104.278 Y99.896 E11.53002
G1 X102.681 Y101.118 E11.63466
G1 X101.238 Y102.04 E11.72376
G1 X99.633 Y102.895 E11.81839
G1 X97.861 Y103.653 E11.91868
G1 X96.06 Y104.247 E12.01736
G1 X94.174 Y104.691 E12.11818
G1 X92.271 Y104.969 E12.21825
G1 X90.394 Y105.078 E12.31608
G1 X88.2 Y105.011 E12.4303
G1 X64.451 Y103.475 E13.66864
G1 X62.772 Y103.048 E13.75879
G1 X61.591 Y102.51 E13.82632
G1 X60.557 Y101.838 E13.89049
G1 X59.261 Y100.609 E13.98343
G1 X58.551 Y99.645 E14.04573
G1 X57.981 Y98.58 E14.10858
G1 X57.568 Y97.446 E14.17138
G1 X57.329 Y96.345 E14.23
G1 X57.231 Y95.051 E14.29753
G1 X57.235 Y84.706 E14.83582
G1 X57.456 Y82.985 E14.92611
G1 X58.021 Y81.333 E15.01696
G1 X58.888 Y79.862 E15.10581
G1 X60.053 Y78.579 E15.19599
G1 X60.286 Y78.399 E15.21131
G1 X60.545 Y78.672 F9000
G1 F900
G1 X60.771 Y78.457 E15.22754
G1 X61.761 Y77.812 E15.28902
G1 X62.77 Y77.343 E15.34692
G1 X63.799 Y77.023 E15.40299
G1 X64.852 Y76.843 E15.45858
G1 X88.745 Y75.322 E16.70435
G1 X90.277 Y75.284 E16.78409
G1 X93.109 Y75.501 E16.93188
G1 X95.826 Y76.068 E17.0763
G1 X98.445 Y76.971 E17.22045
G1 X100.936 Y78.205 E17.3651
G1 X103.351 Y79.826 E17.51645
G1 X105.527 Y81.752 E17.66766
G1 X107.445 Y83.978 E17.82055
G1 X108.891 Y86.168 E17.9571
G1 X109.281 Y86.947 E18.00243
G1 X109.604 Y87.84 E18.05184
G1 X109.903 Y89.555 E18.14242
G1 X109.805 Y91.291 E18.2329
G1 X109.342 Y92.908 E18.32042
G1 X108.449 Y94.566 E18.41841
G1 X107.038 Y96.549 E18.54505
G1 X105.503 Y98.272 E18.66512
G1 X103.688 Y99.909 E18.7923
G1 X102.139 Y101.046 E18.89228
G1 X100.569 Y102.002 E18.98793
G1 X98.957 Y102.806 E19.08166
G1 X97.254 Y103.487 E19.1771
G1 X95.54 Y104.009 E19.27033
G1 X93.732 Y104.401 E19.36659
G1 X91.956 Y104.632 E19.45978
G1 X90.114 Y104.716 E19.55573
G1 X64.507 Y103.114 E20.89078
G1 X62.899 Y102.706 E20.9771
G1 X61.764 Y102.189 E21.042
G1 X60.335 Y101.184 E21.1329
G1 X59.279 Y100.052 E21.21345
G1 X58.588 Y98.984 E21.27964
G1 X58.113 Y97.939 E21.33937
G1 X57.8 Y96.882 E21.39673
G1 X57.632 Y95.807 E21.45335
G1 X57.621 Y84.328 E22.05065
G1 X57.914 Y82.672 E22.13816
G1 X58.561 Y81.066 E22.22825
G1 X59.557 Y79.606 E22.32021
G1 X60.501 Y78.713 E22.38783
; printing object 3DBenchy.stl id:0 copy 0
EXCLUDE_OBJECT_START NAME=3DBenchy_stl_id_0_copy_0
G1 E21.88783 F2400
G92 E0
G1 Z.55 F9000
G1 X94.553 Y88.567
G1 Z.35
G1 E.5 F2400
;TYPE:Perimeter
;WIDTH:0.44
G1 F900
G1 X94.326 Y88.156 E.52443
G1 X94.056 Y87.871 E.54486
G1 X93.57 Y87.627 E.57316
G1 X93.216 Y87.568 E.59183
G1 X92.725 Y87.603 E.61744
G1 X92.442 Y87.718 E.63334
G1 X92.157 Y87.965 E.65296
G1 X92.038 Y87.851 E.66153
G1 X91.65 Y87.625 E.68489
G1 X91.23 Y87.559 E.70701
G1 X90.902 Y87.596 E.72419
G1 X90.442 Y87.828 E.751
G1 X90.179 Y88.044 E.76871
G1 X90.032 Y87.894 E.77964
G1 X89.59 Y87.648 E.80596
G1 X89.221 Y87.554 E.82577
G1 X88.688 Y87.637 E.85384
G1 X88.337 Y87.792 E.87381
G1 X87.982 Y88.126 E.89917
G1 X87.817 Y88.453 E.91823
G1 X87.742 Y88.835 E.93849
G1 X87.79 Y89.284 E.96199
G1 X87.982 Y89.761 E.98875
G1 X88.544 Y90.757 E1.04826
G1 X88.274 Y91.184 E1.07455
G1 X88.127 Y90.999 E1.08685
G1 X87.739 Y90.701 E1.11231
G1 X87.386 Y90.537 E1.13256
G1 X86.846 Y90.443 E1.16108
G1 X86.522 Y90.462 E1.17797
G1 X86.539 Y89.77 E1.21399
G1 X86.505 Y89.292 E1.23893
G1 X86.43 Y88.784 E1.26565
G1 X86.178 Y88.005 E1.30825
G1 X85.908 Y87.507 E1.33773
G1 X85.569 Y87.076 E1.36626
G1 X85.11 Y86.683 E1.3977
G1 X84.593 Y86.403 E1.42829
G1 X84.011 Y86.232 E1.45985
G1 X83.342 Y86.139 E1.495
G1 X81.754 Y86.105 E1.57765
G1 X81.152 Y86.191 E1.60929
G1 X80.689 Y86.413 E1.63601
G1 X80.407 Y86.695 E1.65676
G1 X80.192 Y87.2 E1.68532
G1 X79.736 Y86.602 E1.72445
G1 X79.248 Y86.269 E1.75519
G1 X78.957 Y86.134 E1.77188
G1 X78.299 Y85.977 E1.80708
G1 X77.606 Y85.948 E1.84317
G1 X76.973 Y86.025 E1.87635
G1 X76.734 Y86.089 E1.88922
G1 X76.093 Y86.367 E1.92558
G1 X75.788 Y86.621 E1.94623
G1 X75.525 Y86.346 E1.96603
G1 X75.281 Y86.228 E1.98013
G1 X74.776 Y86.115 E2.00706
G1 X71.507 Y86.125 E2.17716
G1 X70.903 Y86.085 E2.20866
G1 X70.636 Y86.107 E2.2226
G1 X70.166 Y86.269 E2.24847
G1 X69.915 Y86.458 E2.26482
G1 X69.704 Y86.714 E2.28208
G1 X69.425 Y86.506 E2.30019
G1 X68.969 Y86.215 E2.32834
G1 X68.386 Y86.026 E2.36023
G1 X67.518 Y85.947 E2.40558
G1 X66.926 Y86.004 E2.43653
G1 X66.374 Y86.174 E2.46658
G1 X65.842 Y86.403 E2.49672
G1 X65.385 Y86.73 E2.52596
G1 X65.024 Y87.113 E2.55335
G1 X65.025 Y85.229 E2.65138
G1 X65.082 Y84.826 E2.67256
G1 X65.21 Y84.531 E2.68929
G1 X65.433 Y84.338 E2.70464
G1 X65.84 Y84.234 E2.7265
G1 X89.2 Y82.802 E3.9443
G1 X90.052 Y82.778 E3.98865
G1 X90.902 Y82.803 E4.0329
G1 X91.841 Y82.891 E4.08197
G1 X92.682 Y83.026 E4.12629
G1 X93.703 Y83.261 E4.18081
G1 X94.705 Y83.569 E4.23536
G1 X95.483 Y83.868 E4.27873
G1 X96.344 Y84.264 E4.32804
G1 X97.126 Y84.686 E4.37428
G1 X98.018 Y85.251 E4.42922
G1 X98.692 Y85.745 E4.4727
G1 X99.454 Y86.382 E4.52438
G1 X100.099 Y86.999 E4.57083
G1 X100.892 Y87.881 E4.63255
;WIDTH:0.428448
G1 X100.783 Y87.795 E4.63955
;WIDTH:0.44
G1 X100.457 Y87.633 E4.65849
G1 X100.031 Y87.555 E4.68103
G1 X98.005 Y87.549 E4.78645
G1 X97.488 Y87.594 E4.81345
G1 X97.106 Y87.705 E4.83415
G1 X96.749 Y87.936 E4.85628
G1 X96.472 Y87.714 E4.87475
G1 X96.206 Y87.605 E4.88971
G1 X95.772 Y87.559 E4.91242
G1 X95.385 Y87.671 E4.93338
G1 X95.113 Y87.822 E4.94957
G1 X94.788 Y88.191 E4.97516
G1 X94.585 Y88.516 E4.9951
G1 E4.4951 F2400
G92 E0
G1 Z.55 F9000
G1 X102.272 Y90.019
G1 Z.35
G1 E.5 F2400
G1 F900
G1 X102.227 Y90.187 E.50905
G1 X101.966 Y90.631 E.53585
G1 X101.541 Y91.268 E.5757
G1 X101.195 Y91.735 E.60594
G1 X101.016 Y91.565 E.61879
G1 X100.681 Y91.341 E.63976
G1 X100.264 Y91.21 E.6625
G1 X100.873 Y90.353 E.71721
G1 X101.149 Y89.918 E.74402
G1 X101.317 Y89.507 E.76712
G1 X101.375 Y88.884 E.79968
G1 X101.295 Y88.496 E.82029
;WIDTH:0.438298
G1 X101.163 Y88.221 E.83609
G1 X101.349 Y88.466 E.85202
;WIDTH:0.44
G1 X101.784 Y89.085 E.89139
G1 X102.218 Y89.795 E.93469
G1 X102.258 Y89.96 E.94352
G1 E.44352 F2400
G92 E0
G1 Z.55 F9000
G1 X96.576 Y91.36
G1 Z.35
G1 E.5 F2400
;WIDTH:0.604857
G1 F900
G1 X96.611 Y91.203 E.51215
;WIDTH:0.564903
G1 X96.646 Y91.046 E.52338
;WIDTH:0.524949
G1 X96.681 Y90.889 E.5337
;WIDTH:0.484995
G1 X96.927 Y90.17 E.57812
G1 X97.015 Y90.225 E.58419
G1 X97.372 Y90.346 E.60622
G1 X96.898 Y91 E.65343
;WIDTH:0.524949
G1 X96.791 Y91.12 E.66374
;WIDTH:0.564903
G1 X96.684 Y91.24 E.67497
;WIDTH:0.604857
G1 X96.616 Y91.315 E.68262
G1 E.18262 F2400
G92 E0
G1 Z.55 F9000
G1 X92.045 Y90.262
G1 Z.35
G1 E.5 F2400
;WIDTH:0.50859
G1 F900
G1 X92.081 Y90.201 E.50438
G1 X92.441 Y91.089 E.56361
;WIDTH:0.463097
G1 X92.642 Y91.555 E.59169
;WIDTH:0.417604
G1 X92.69 Y91.672 E.59787
;WIDTH:0.411846
G1 X92.892 Y92.209 E.62542
;WIDTH:0.448189
G1 X92.98 Y92.46 E.63957
;WIDTH:0.484532
G1 X93.069 Y92.711 E.65512
G1 X92.945 Y93.031 E.67516
;WIDTH:0.444286
G1 X92.732 Y93.577 E.70601
;WIDTH:0.439292
G1 X92.59 Y93.723 E.71659
;WIDTH:0.478432
G1 X92.423 Y93.754 E.72636
;WIDTH:0.519414
G1 X92.257 Y93.784 E.73705
;WIDTH:0.560397
G1 X92.09 Y93.815 E.7488
G1 X92.181 Y93.701 E.75889
;WIDTH:0.519414
G1 X92.272 Y93.587 E.76813
;WIDTH:0.478432
G1 X92.363 Y93.474 E.77647
;WIDTH:0.43745
G1 X92.503 Y93.205 E.79214
;WIDTH:0.47304
G1 X92.633 Y92.749 E.81905
G1 X92.597 Y92.507 E.83293
;WIDTH:0.440702
G1 X92.561 Y92.264 E.84574
;WIDTH:0.417604
G1 X92.335 Y91.704 E.87523
;WIDTH:0.463097
G1 X92.093 Y91.258 E.9033
;WIDTH:0.50859
G1 X91.788 Y90.696 E.94283
G1 X92.014 Y90.313 E.97032
G1 E.47032 F2400
G92 E0
G1 Z.55 F9000
G1 X69.269 Y90.696
G1 Z.35
G1 E.5 F2400
;WIDTH:0.44
G1 F900
G1 X69.018 Y90.646 E.51332
G1 X68.483 Y90.641 E.54116
G1 X68.035 Y90.835 E.56656
G1 X67.711 Y91.1 E.58834
G1 X67.5 Y91.125 E.5994
G1 X67.278 Y91.043 E.61171
G1 X67.135 Y90.859 E.62384
G1 X67.01 Y90.325 E.65238
G1 X67.015 Y89.567 E.69182
G1 X67.134 Y89.064 E.71872
G1 X67.259 Y88.915 E.72884
G1 X67.505 Y88.815 E.74266
G1 X67.679 Y88.89 E.75252
G1 X68.183 Y89.163 E.78235
G1 X68.673 Y89.314 E.80903
G1 X69.068 Y89.314 E.82958
G1 X69.47 Y89.184 E.85156
G1 X69.735 Y89.013 E.86797
G1 X70.017 Y88.7 E.88989
G1 X70.379 Y88.894 E.91126
G1 X70.803 Y88.971 E.93368
G1 X71.364 Y88.925 E.96297
G1 X71.352 Y89.156 E.97501
G1 X71.368 Y91.541 E1.09911
G1 X71.341 Y92.686 E1.15871
G1 X71.408 Y92.96 E1.17339
G1 X71.619 Y93.357 E1.19678
G1 X71.922 Y93.61 E1.21732
G1 X72.266 Y93.766 E1.23697
G1 X72.512 Y93.819 E1.25006
G1 X72.815 Y93.832 E1.26584
G1 X73.354 Y93.702 E1.29469
G1 X73.681 Y93.489 E1.315
G1 X73.962 Y93.137 E1.33844
G1 X74.099 Y92.73 E1.36079
G1 X74.172 Y92.346 E1.38113
G1 X74.156 Y88.93 E1.55888
G1 X74.635 Y88.921 E1.58381
G1 X75.299 Y88.777 E1.61916
G1 X75.6 Y88.58 E1.63788
G1 X75.802 Y88.799 E1.65338
G1 X76.131 Y89.023 E1.67409
G1 X76.045 Y89.206 E1.68461
G1 X75.952 Y89.771 E1.7144
G1 X76.038 Y90.214 E1.73788
G1 X76.208 Y90.538 E1.75692
G1 X76.464 Y90.78 E1.77525
G1 X76.238 Y90.827 E1.78726
G1 X75.767 Y91.074 E1.81493
G1 X75.508 Y91.368 E1.83532
G1 X75.335 Y91.741 E1.85671
G1 X75.27 Y92.154 E1.87846
G1 X75.394 Y92.751 E1.91019
G1 X75.526 Y93.04 E1.92672
G1 X75.84 Y93.381 E1.95084
G1 X76.192 Y93.641 E1.97361
G1 X76.903 Y93.9 E2.01298
G1 X77.792 Y93.984 E2.05944
G1 X78.435 Y93.92 E2.09306
G1 X78.986 Y93.752 E2.12303
G1 X79.396 Y93.53 E2.14729
G1 X79.853 Y93.152 E2.17815
G1 X80.236 Y92.643 E2.2113
G1 X80.273 Y92.851 E2.22229
G1 X80.405 Y93.183 E2.24088
G1 X80.718 Y93.565 E2.26658
G1 X81.093 Y93.755 E2.28845
G1 X81.531 Y93.845 E2.31172
G1 X82.143 Y93.806 E2.34363
G1 X82.893 Y93.814 E2.38266
G1 X83.496 Y93.777 E2.4141
G1 X84.199 Y93.642 E2.45135
G1 X84.784 Y93.407 E2.48415
G1 X85.059 Y93.242 E2.50084
G1 X85.266 Y93.536 E2.51955
G1 X85.594 Y93.894 E2.54481
G1 X86.113 Y94.168 E2.57535
G1 X86.455 Y94.262 E2.59381
G1 X86.982 Y94.283 E2.62125
G1 X87.491 Y94.145 E2.64869
G1 X87.763 Y94.009 E2.66451
G1 X88.175 Y93.704 E2.69118
G1 X88.641 Y93.952 E2.71865
G1 X89.017 Y94.006 E2.73842
G1 X89.394 Y93.959 E2.75819
G1 X89.827 Y93.739 E2.78346
G1 X90.093 Y93.436 E2.80444
G1 X90.197 Y93.575 E2.81347
G1 X90.475 Y93.794 E2.83188
G1 X90.95 Y94.005 E2.85893
G1 X91.353 Y94.022 E2.87992
;WIDTH:0.478061
G1 X91.523 Y93.998 E2.88979
;WIDTH:0.516123
G1 X91.693 Y93.973 E2.9006
;WIDTH:0.554185
G1 X91.863 Y93.949 E2.91233
G1 X91.755 Y94.087 E2.9243
;WIDTH:0.516123
G1 X91.647 Y94.226 E2.93537
;WIDTH:0.478061
G1 X91.54 Y94.364 E2.9454
;WIDTH:0.44
G1 X91.399 Y94.697 E2.96422
G1 X91.383 Y95.319 E2.9966
G1 X91.547 Y95.772 E3.02167
G1 X91.722 Y96.036 E3.03815
G1 X92.013 Y96.312 E3.05902
G1 X92.249 Y96.426 E3.07266
;WIDTH:0.445232
G1 X92.658 Y96.545 E3.09514
G1 X92.916 Y96.543 E3.10876
;WIDTH:0.443922
G1 X93.614 Y96.401 E3.14622
;WIDTH:0.447714
G1 X94.222 Y96.128 E3.18163
G1 X94.663 Y95.729 E3.21323
;WIDTH:0.44
G1 X94.82 Y95.539 E3.22606
G1 X95.158 Y94.902 E3.26358
G1 X95.46 Y94.179 E3.30435
G1 X95.982 Y92.772 E3.38244
;WIDTH:0.488847
G1 X96.124 Y92.449 E3.40326
;WIDTH:0.537695
G1 X96.266 Y92.125 E3.4266
G1 X96.265 Y92.162 E3.42904
;WIDTH:0.528739
G1 X96.281 Y92.473 E3.44918
;WIDTH:0.484369
G1 X96.297 Y92.785 E3.46741
;WIDTH:0.44
G1 X96.397 Y93.153 E3.48725
G1 X96.548 Y93.46 E3.50505
G1 X96.921 Y93.8 E3.53131
G1 X97.357 Y93.995 E3.55616
G1 X97.702 Y94.03 E3.5742
G1 X98.254 Y94.003 E3.60296
G1 X98.987 Y94.02 E3.64111
G1 X98.085 Y94.704 E3.70001
G1 X97.604 Y95.023 E3.73004
G1 X96.887 Y95.45 E3.77346
G1 X96.119 Y95.846 E3.81842
G1 X95.015 Y96.313 E3.88079
;WIDTH:0.458327
G1 X93.497 Y96.801 E3.96793
;WIDTH:0.443922
G1 X92.48 Y97.007 E4.0225
;WIDTH:0.440184
G1 X91.82 Y97.112 E4.05729
;WIDTH:0.44
G1 X90.891 Y97.198 E4.10584
G1 X89.922 Y97.222 E4.15628
G1 X88.708 Y97.168 E4.21951
G1 X65.884 Y95.765 E5.40938
G1 X65.416 Y95.649 E5.43447
G1 X65.24 Y95.512 E5.44608
G1 X65.098 Y95.254 E5.4614
G1 X65.021 Y94.841 E5.48326
G1 X65.022 Y92.807 E5.5891
G1 X65.295 Y93.123 E5.61083
G1 X65.721 Y93.449 E5.63874
G1 X66.533 Y93.831 E5.68543
G1 X67.228 Y93.965 E5.72226
G1 X68.212 Y93.937 E5.77348
G1 X68.723 Y93.81 E5.80088
G1 X68.963 Y93.713 E5.81435
G1 X69.442 Y93.43 E5.8433
G1 X69.685 Y93.22 E5.86001
G1 X70.1 Y92.678 E5.89553
G1 X70.253 Y92.261 E5.91864
G1 X70.298 Y91.931 E5.93597
G1 X70.199 Y91.521 E5.95792
G1 X69.991 Y91.168 E5.97924
G1 X69.688 Y90.883 E6.00088
G1 X69.328 Y90.708 E6.02171
G1 E5.52171 F2400
G92 E0
G1 Z.55 F9000
G1 X102.636 Y90.051
G1 Z.35
G1 E.5 F2400
G1 F900
G1 X102.561 Y90.339 E.51549
G1 X102.283 Y90.812 E.54404
G1 X101.864 Y91.445 E.58354
G1 X101.562 Y91.861 E.61029
G1 X101.079 Y92.463 E.65045
G1 X101.047 Y92.263 E.66099
G1 X100.911 Y91.986 E.67705
G1 X100.639 Y91.725 E.69667
G1 X100.205 Y91.568 E.72069
G1 X99.592 Y91.524 E.75267
G1 X100.569 Y90.151 E.84035
G1 X100.841 Y89.722 E.86678
G1 X100.973 Y89.387 E.88552
G1 X101.01 Y88.875 E.91223
G1 X100.964 Y88.646 E.92438
G1 X100.768 Y88.254 E.94718
G1 X100.472 Y88.024 E.96669
G1 X100.03 Y87.92 E.99032
G1 X98.065 Y87.914 E1.09257
G1 X97.523 Y87.957 E1.12086
