; generated by PrusaSlicer 2.6.1-rc2+win64 on 2023-09-17 at 17:37:50 UTC


;
;

;
;
; 

; external perimeters extrusion width = 0.42mm
; perimeters extrusion width = 0.44mm
; infill extrusion width = 0.44mm
; solid infill extrusion width = 0.44mm
; top infill extrusion width = 0.44mm
; support material extrusion width = 0.35mm

M190 S60 ; set bed temperature and wait for it to be reached


; Pre-Processed for Cancel-Object support by preprocess_cancellation v0.2.0
; 1 known objects
EXCLUDE_OBJECT_DEFINE NAME=4_5_inch_Top_id_0_copy_0 CENTER=89.978,90.477 POLYGON=[[81.035,78.814],[81.035,101.251],[98.963,101.251],[98.963,78.814]]
M104 S215 ; set temperature
;TYPE:Custom
M117 ; Clear displays current message (This is included to avoid an error with Adaptive_Bed_Mesh
print_start EXTRUDER_TEMP=215 BED_TEMP=60
M109 S215 ; set temperature and wait for it to be reached
G21 ; set units to millimeters
G90 ; use absolute coordinates
M82 ; use absolute distances for extrusion
G92 E0
; Filament gcode
SET_PRESSURE_ADVANCE ADVANCE=0.049
M107
;LAYER_CHANGE
;Z:0.35
;HEIGHT:0.35
TIMELAPSE_TAKE_FRAME
G1 E-.5 F2400
G92 E0
G1 Z.35 F9000
G1 Z.55
G1 X77.914 Y76.875
G1 Z.35
G1 E.5 F2400
;TYPE:Skirt/Brim
;WIDTH:0.44
G1 F900
G1 X79.065 Y75.712 E.58514
G1 X79.784 Y75.108 E.634
G1 X81.571 Y73.846 E.74784
G1 X83.259 Y72.961 E.84701
G1 X84.212 Y72.57 E.90061
G1 X86.224 Y71.938 E1.01035
G1 X87.901 Y71.64 E1.09898
G1 X88.923 Y71.534 E1.15244
G1 X90.705 Y71.511 E1.24517
G1 X91.628 Y71.586 E1.29336
G1 X93.729 Y71.929 E1.40413
G1 X95.592 Y72.49 E1.50537
G1 X96.489 Y72.857 E1.5558
G1 X98.01 Y73.603 E1.64395
G1 X99.875 Y74.842 E1.76046
G1 X100.779 Y75.584 E1.82132
G1 X102.28 Y77.08 E1.93159
G1 X103.927 Y79.346 E2.07735
G1 X104.877 Y81.158 E2.18381
G1 X105.175 Y81.903 E2.22556
G1 X105.728 Y83.556 E2.31626
G1 X106.144 Y85.708 E2.43031
G1 X106.237 Y86.494 E2.47149
G1 X106.266 Y88.547 E2.57833
G1 X105.911 Y91.229 E2.7191
G1 X105.298 Y93.309 E2.83193
G1 X104.899 Y94.314 E2.8882
G1 X103.989 Y96.093 E2.99218
G1 X102.839 Y97.756 E3.09739
G1 X102.101 Y98.638 E3.15723
G1 X100.819 Y99.919 E3.25153
G1 X99.172 Y101.184 E3.35959
G1 X98.383 Y101.695 E3.4085
G1 X96.786 Y102.53 E3.50227
G1 X95.749 Y102.954 E3.56057
G1 X94.132 Y103.483 E3.6491
G1 X92.109 Y103.87 E3.75627
G1 X91.059 Y103.978 E3.81119
G1 X89.114 Y103.994 E3.9124
G1 X86.308 Y103.592 E4.0599
G1 X84.413 Y103.023 E4.16285
G1 X83.461 Y102.635 E4.21634
G1 X81.702 Y101.75 E4.3188
G1 X80.142 Y100.693 E4.41685
G1 X79.426 Y100.132 E4.46418
G1 X77.834 Y98.581 E4.57983
G1 X76.162 Y96.342 E4.72523
G1 X75.264 Y94.673 E4.82385
G1 X74.831 Y93.657 E4.88132
G1 X74.219 Y91.796 E4.98326
G1 X73.841 Y89.756 E5.09122
G1 X73.745 Y88.624 E5.15033
G1 X73.739 Y86.818 E5.2443
G1 X74.175 Y83.925 E5.39654
G1 X74.785 Y81.981 E5.50256
G1 X75.166 Y81.083 E5.55332
G1 X75.836 Y79.752 E5.63086
G1 X77.163 Y77.773 E5.75484
G1 X77.876 Y76.921 E5.81265
G1 X78.155 Y77.154 F9000
G1 F900
G1 X79.317 Y75.976 E5.89875
G1 X80.001 Y75.401 E5.94525
G1 X81.753 Y74.162 E6.05691
G1 X83.418 Y73.289 E6.15473
G1 X84.328 Y72.916 E6.2059
G1 X86.303 Y72.294 E6.31364
G1 X87.963 Y72 E6.40136
G1 X88.937 Y71.898 E6.45232
G1 X90.695 Y71.876 E6.5438
G1 X93.639 Y72.282 E6.69844
G1 X95.472 Y72.834 E6.79805
G1 X96.33 Y73.186 E6.84631
G1 X97.837 Y73.924 E6.93362
G1 X99.666 Y75.142 E7.04796
G1 X100.526 Y75.847 E7.10582
G1 X102.002 Y77.316 E7.21418
G1 X103.61 Y79.526 E7.35639
G1 X104.467 Y81.144 E7.45166
G1 X104.829 Y82.021 E7.50103
G1 X105.378 Y83.658 E7.59087
G1 X105.784 Y85.77 E7.70278
G1 X105.873 Y86.519 E7.74203
G1 X105.901 Y88.538 E7.8471
G1 X105.554 Y91.158 E7.98462
G1 X104.95 Y93.198 E8.09532
G1 X104.567 Y94.162 E8.14929
G1 X103.673 Y95.91 E8.25145
G1 X102.542 Y97.543 E8.35481
G1 X101.839 Y98.384 E8.41185
G1 X100.576 Y99.647 E8.50479
G1 X98.958 Y100.889 E8.61093
G1 X98.203 Y101.377 E8.65771
G1 X96.626 Y102.202 E8.75032
G1 X95.633 Y102.609 E8.80616
G1 X94.033 Y103.132 E8.89375
G1 X92.048 Y103.51 E8.99889
G1 X91.046 Y103.613 E9.0513
G1 X89.131 Y103.629 E9.15095
G1 X86.393 Y103.237 E9.29487
G1 X84.529 Y102.677 E9.39614
G1 X83.62 Y102.306 E9.44723
G1 X81.89 Y101.437 E9.54797
G1 X80.35 Y100.394 E9.64475
G1 X79.419 Y99.631 E9.70738
G1 X78.105 Y98.336 E9.80338
G1 X76.473 Y96.152 E9.94525
G1 X75.591 Y94.512 E10.04214
G1 X75.177 Y93.538 E10.09721
G1 X74.572 Y91.703 E10.19775
G1 X74.202 Y89.698 E10.30384
G1 X74.11 Y88.62 E10.36014
G1 X74.104 Y86.837 E10.45292
G1 X74.528 Y84.017 E10.60131
G1 X75.129 Y82.105 E10.7056
G1 X75.492 Y81.246 E10.75412
G1 X76.16 Y79.921 E10.83133
G1 X77.46 Y77.985 E10.95267
G1 X78.116 Y77.2 E11.0059
G1 X78.395 Y77.434 F9000
G1 F900
G1 X79.569 Y76.24 E11.09303
G1 X81.935 Y74.478 E11.24653
G1 X84.17 Y73.361 E11.37654
G1 X85.9 Y72.777 E11.47155
G1 X86.726 Y72.582 E11.51571
G1 X88.599 Y72.285 E11.61439
G1 X90.597 Y72.239 E11.71838
G1 X91.527 Y72.309 E11.76691
G1 X93.548 Y72.636 E11.87344
G1 X95.979 Y73.425 E12.00643
G1 X97.618 Y74.221 E12.10124
G1 X98.347 Y74.667 E12.14571
G1 X99.851 Y75.739 E12.24181
G1 X101.403 Y77.202 E12.35279
G1 X103.044 Y79.302 E12.49147
G1 X104.028 Y81.084 E12.59739
G1 X104.484 Y82.139 E12.65719
G1 X105.027 Y83.759 E12.74609
G1 X105.425 Y85.832 E12.85593
G1 X105.508 Y86.544 E12.89323
G1 X105.536 Y88.53 E12.99658
G1 X105.196 Y91.087 E13.1308
G1 X104.602 Y93.088 E13.23941
G1 X104.236 Y94.009 E13.29098
G1 X103.357 Y95.727 E13.3914
G1 X102.246 Y97.331 E13.49293
G1 X101.577 Y98.13 E13.54715
G1 X100.332 Y99.375 E13.63877
G1 X98.024 Y101.06 E13.78746
G1 X96.465 Y101.875 E13.879
G1 X95.517 Y102.263 E13.9323
G1 X93.935 Y102.78 E14.0189
G1 X91.986 Y103.15 E14.12213
G1 X91.086 Y103.247 E14.16923
G1 X89.147 Y103.265 E14.27013
G1 X86.561 Y102.902 E14.40601
G1 X84.763 Y102.37 E14.50358
G1 X83.779 Y101.978 E14.5587
G1 X82.078 Y101.125 E14.65772
G1 X80.559 Y100.094 E14.75325
G1 X79.672 Y99.368 E14.81289
G1 X78.375 Y98.092 E14.90756
G1 X76.784 Y95.961 E15.04594
G1 X75.919 Y94.35 E15.14109
G1 X75.522 Y93.42 E15.19371
G1 X74.925 Y91.611 E15.29283
G1 X74.568 Y89.679 E15.39506
G1 X74.485 Y88.922 E15.43469
G1 X74.464 Y86.955 E15.53705
G1 X74.881 Y84.11 E15.68667
G1 X75.472 Y82.229 E15.78926
G1 X75.818 Y81.41 E15.83552
G1 X76.483 Y80.089 E15.91248
G1 X77.757 Y78.196 E16.03121
G1 X78.357 Y77.48 E16.07982
; printing object 4.5 inch Top id:0 copy 0
EXCLUDE_OBJECT_START NAME=4_5_inch_Top_id_0_copy_0
G1 E15.57982 F2400
G92 E0
G1 Z.55 F9000
G1 X90.737 Y96.315
G1 Z.35
G1 E.5 F2400
;TYPE:Perimeter
;WIDTH:0.44
G1 F900
G1 X89.466 Y96.34 E.56615
G1 X88.275 Y96.167 E.62877
G1 X87.903 Y96.084 E.6486
G1 X86.692 Y95.682 E.71499
G1 X85.548 Y95.124 E.78122
G1 X84.512 Y94.4 E.84699
G1 X83.521 Y93.447 E.91853
G1 X82.692 Y92.335 E.9907
G1 X82.065 Y91.137 E1.06106
G1 X81.633 Y89.865 E1.13096
G1 X81.406 Y88.539 E1.20096
G1 X81.391 Y87.198 E1.27074
G1 X81.59 Y85.852 E1.34154
G1 X82.03 Y84.482 E1.41641
G1 X82.615 Y83.318 E1.4842
G1 X83.373 Y82.257 E1.55205
G1 X84.338 Y81.27 E1.62388
G1 X85.414 Y80.473 E1.69356
G1 X86.694 Y79.816 E1.76843
G1 X87.901 Y79.413 E1.83464
G1 X89.155 Y79.196 E1.90086
G1 X90.504 Y79.169 E1.97107
G1 X91.913 Y79.372 E2.04514
G1 X93.139 Y79.748 E2.11187
G1 X94.33 Y80.322 E2.18066
G1 X95.479 Y81.116 E2.25333
G1 X96.462 Y82.064 E2.32439
G1 X97.296 Y83.183 E2.39701
G1 X97.903 Y84.327 E2.4644
G1 X98.345 Y85.604 E2.53472
G1 X98.56 Y86.817 E2.59882
G1 X98.594 Y87.183 E2.61795
G1 X98.607 Y88.346 E2.67847
G1 X98.401 Y89.716 E2.75056
G1 X97.945 Y91.101 E2.82643
G1 X97.365 Y92.243 E2.89308
G1 X96.638 Y93.259 E2.95809
G1 X95.681 Y94.235 E3.02922
G1 X94.593 Y95.038 E3.09958
G1 X94 Y95.348 E3.1344
G1 X93.286 Y95.702 E3.17587
G1 X92.084 Y96.101 E3.24177
G1 X90.797 Y96.314 E3.30965
G1 X90.744 Y96.67 F9000
;TYPE:External perimeter
;WIDTH:0.42
G1 F900
G1 X89.444 Y96.696 E3.3736
G1 X88.008 Y96.487 E3.44497
G1 X86.961 Y96.166 E3.49883
G1 X86.539 Y96.002 E3.5211
G1 X85.36 Y95.426 E3.58564
G1 X84.286 Y94.675 E3.65009
G1 X83.254 Y93.682 E3.72053
G1 X82.39 Y92.525 E3.79155
G1 X81.738 Y91.277 E3.8608
G1 X81.288 Y89.952 E3.92962
G1 X81.051 Y88.571 E3.99853
G1 X81.035 Y87.174 E4.06724
G1 X81.243 Y85.771 E4.137
G1 X81.701 Y84.347 E4.21057
G1 X82.311 Y83.135 E4.2773
G1 X83.1 Y82.029 E4.34412
G1 X84.104 Y81.001 E4.41479
G1 X85.227 Y80.171 E4.48347
G1 X86.556 Y79.488 E4.55696
G1 X87.814 Y79.068 E4.62219
G1 X89.121 Y78.842 E4.68742
G1 X90.526 Y78.814 E4.75653
G1 X91.991 Y79.024 E4.82932
G1 X93.269 Y79.416 E4.89507
G1 X94.509 Y80.015 E4.9628
G1 X95.704 Y80.841 E5.03425
G1 X96.729 Y81.829 E5.10427
G1 X97.597 Y82.992 E5.17564
G1 X98.229 Y84.185 E5.24204
G1 X98.69 Y85.515 E5.31127
G1 X98.909 Y86.755 E5.3732
G1 X98.949 Y87.179 E5.39415
G1 X98.963 Y88.371 E5.45278
G1 X98.748 Y89.797 E5.52371
G1 X98.399 Y90.899 E5.58056
G1 X98.267 Y91.253 E5.59914
G1 X97.67 Y92.428 E5.66396
G1 X96.911 Y93.488 E5.72808
G1 X95.915 Y94.504 E5.79805
G1 X94.781 Y95.339 E5.86731
G1 X94.164 Y95.663 E5.90158
G1 X93.412 Y96.034 E5.94282
G1 X92.171 Y96.446 E6.00713
G1 X90.804 Y96.669 E6.07525
G1 X90.514 Y96.343 F9000
G1 E5.57525 F2400
G92 E0
G1 Z.55 F9000
G1 X90.634 Y96.344
G1 X84.365 Y85.865
G1 X84.673 Y85.556
G1 X84.674 Y85.556
G1 Z.35
G1 E.5 F2400
;TYPE:Perimeter
;WIDTH:0.44
G1 F900
G1 X84.713 Y85.492 E.5039
G1 X87.705 Y82.5 E.72407
G1 X87.911 Y82.373 E.73666
G1 X88.127 Y82.348 E.74797
G1 X88.365 Y82.431 E.76109
G1 X95.411 Y89.461 E1.279
G1 X95.552 Y89.715 E1.29412
G1 X95.509 Y90.073 E1.31288
G1 X95.129 Y90.489 E1.3422
G1 X92.419 Y93.199 E1.54162
G1 X92.212 Y93.326 E1.55426
G1 X91.963 Y93.347 E1.56726
G1 X91.673 Y93.199 E1.5842
G1 X84.713 Y86.238 E2.09641
G1 X84.565 Y85.951 E2.11321
G1 X84.583 Y85.704 E2.1261
G1 X84.642 Y85.608 E2.13196
G1 X84.964 Y85.743 F9000
;TYPE:External perimeter
;WIDTH:0.42
G1 F900
G1 X87.956 Y82.751 E2.34007
G1 X88.094 Y82.701 E2.34729
G1 X88.199 Y82.751 E2.35301
G1 X95.16 Y89.712 E2.83718
G1 X95.206 Y89.795 E2.84185
G1 X95.16 Y89.956 E2.85009
G1 X92.168 Y92.948 E3.0582
G1 X92.019 Y92.996 E3.0659
G1 X91.924 Y92.948 E3.07113
G1 X84.964 Y85.987 E3.55526
G1 X84.915 Y85.841 E3.56283
G1 X84.937 Y85.797 E3.56525
G1 X84.764 Y85.397 F9000
G1 E3.06525 F2400
G92 E0
G1 Z.55 F9000
G1 X94.758 Y80.752
G1 Z.35
G1 E.5 F2400
;TYPE:Solid infill
;WIDTH:0.445045
G1 F900
G1 X96.266 Y82.259 E.61247
G1 X97.064 Y83.329 E.68289
G1 X97.348 Y83.864 E.71484
G1 X93.905 Y80.421 E.9717
G1 X93.039 Y80.003 E1.02243
G1 X92.93 Y79.97 E1.02844
G1 X97.786 Y84.825 E1.39068
G1 X98.063 Y85.626 E1.43539
G1 X92.176 Y79.738 E1.87463
G1 X91.853 Y79.64 E1.89244
G1 X91.503 Y79.589 E1.9111
G1 X98.185 Y86.271 E2.40961
G1 X98.298 Y86.907 E2.44369
G1 X90.892 Y79.501 E2.99621
G1 X90.487 Y79.443 E3.01779
G1 X90.314 Y79.447 E3.02692
G1 X98.323 Y87.456 E3.62443
G1 X98.33 Y87.985 E3.65234
G1 X89.802 Y79.457 E4.28857
G1 X89.289 Y79.467 E4.31564
G1 X98.309 Y88.488 E4.98861
G1 X98.241 Y88.943 E5.01288
G1 X88.829 Y79.531 E5.71506
G1 X88.383 Y79.608 E5.73894
G1 X98.172 Y89.397 E6.46925
G1 X98.134 Y89.654 E6.48296
G1 X98.079 Y89.827 E6.49254
G1 X87.941 Y79.689 E7.24888
G1 X87.548 Y79.82 E7.27073
G1 X97.953 Y90.224 E8.04696
G1 X97.827 Y90.622 E8.06898
G1 X87.156 Y79.95 E8.86513
G1 X86.768 Y80.086 E8.88682
G1 X97.687 Y91.005 E9.70143
G1 X97.511 Y91.352 E9.72196
G1 X86.423 Y80.263 E10.54922
G1 X86.077 Y80.441 E10.56975
G1 X87.771 Y82.135 E10.69613
G1 X87.708 Y82.162 E10.69975
G1 X87.465 Y82.352 E10.71602
G1 X85.731 Y80.618 E10.84538
G1 X85.559 Y80.707 E10.8556
G1 X85.408 Y80.818 E10.86549
G1 X87.204 Y82.614 E10.99948
G1 X86.942 Y82.876 E11.01903
G1 X85.107 Y81.041 E11.15593
G1 X84.807 Y81.263 E11.17562
G1 X86.681 Y83.137 E11.31543
G1 X86.419 Y83.399 E11.33498
G1 X84.508 Y81.487 E11.47759
G1 X84.249 Y81.752 E11.49714
G1 X86.158 Y83.66 E11.63952
G1 X85.896 Y83.922 E11.65907
G1 X83.99 Y82.016 E11.80127
G1 X83.732 Y82.281 E11.82078
G1 X85.634 Y84.183 E11.96268
G1 X85.373 Y84.445 E11.98219
G1 X83.491 Y82.563 E12.1226
G1 X83.273 Y82.868 E12.14238
G1 X85.111 Y84.707 E12.27954
G1 X84.85 Y84.968 E12.29901
G1 X83.055 Y83.173 E12.43293
G1 X82.84 Y83.481 E12.45275
G1 X84.588 Y85.23 E12.5832
G1 X84.514 Y85.304 E12.58872
G1 X84.361 Y85.526 E12.60294
G1 X82.542 Y83.707 E12.73865
G1 E12.23865 F2400
G92 E0
G1 Z.55 F9000
G1 X95.644 Y90.007
G1 Z.35
G1 E.5 F2400
G1 F900
G1 X97.335 Y91.699 E.62619
G1 X97.159 Y92.046 E.64672
G1 X95.559 Y90.446 E.76609
G1 X95.297 Y90.708 E.78564
G1 X96.947 Y92.357 E.9087
G1 X96.729 Y92.662 E.92848
G1 X95.036 Y90.969 E1.05479
G1 X94.774 Y91.231 E1.07434
G1 X96.511 Y92.967 E1.20389
G1 X96.428 Y93.082 E1.21137
G1 X96.267 Y93.247 E1.22353
G1 X94.513 Y91.492 E1.35442
G1 X94.251 Y91.754 E1.37397
G1 X96.008 Y93.511 E1.50505
G1 X95.749 Y93.775 E1.52456
G1 X93.99 Y92.015 E1.65583
G1 X93.728 Y92.277 E1.67538
G1 X95.488 Y94.038 E1.80672
G1 X95.187 Y94.26 E1.82645
G1 X93.466 Y92.539 E1.95485
G1 X93.205 Y92.8 E1.97432
G1 X94.886 Y94.481 E2.09973
G1 X94.585 Y94.703 E2.11946
G1 X92.943 Y93.062 E2.24192
G1 X92.682 Y93.323 E2.26139
G1 X94.261 Y94.903 E2.37923
G1 X93.917 Y95.082 E2.39969
G1 X92.259 Y93.424 E2.52338
G1 E2.02338 F2400
G92 E0
G1 Z.55 F9000
G1 X93.696 Y95.384
G1 Z.35
G1 E.5 F2400
G1 F900
G1 X82.489 Y84.178 E1.33606
G1 X82.314 Y84.526 E1.35661
G1 X93.221 Y95.432 E2.17029
G1 X92.83 Y95.565 E2.19208
G1 X82.179 Y84.913 E2.98673
G1 X82.052 Y85.309 E3.00867
G1 X92.437 Y95.695 E3.78348
G1 X92.045 Y95.825 E3.80527
G1 X81.925 Y85.705 E4.56027
G1 X81.858 Y85.914 E4.57185
G1 X81.826 Y86.13 E4.58337
G1 X91.602 Y95.906 E5.31271
G1 X91.156 Y95.983 E5.33659
G1 X81.758 Y86.585 E6.03773
G1 X81.691 Y87.041 E6.06204
G1 X90.692 Y96.043 E6.7336
G1 X90.179 Y96.053 E6.76067
G1 X81.668 Y87.542 E7.39563
G1 X81.674 Y88.071 E7.42354
G1 X89.666 Y96.063 E8.01978
G1 X89.483 Y96.066 E8.02944
G1 X89.089 Y96.009 E8.05044
G1 X81.697 Y88.617 E8.60192
G1 X81.805 Y89.248 E8.63569
G1 X88.477 Y95.92 E9.13345
G1 X88.146 Y95.872 E9.15109
G1 X87.8 Y95.766 E9.17018
G1 X81.934 Y89.9 E9.60781
G1 X82.203 Y90.692 E9.65194
G1 X87.045 Y95.535 E10.01321
G1 X86.069 Y95.081 E10.07
G1 X82.647 Y91.66 E10.32526
G1 X82.924 Y92.189 E10.35676
G1 X83.717 Y93.253 E10.42676
G1 X85.24 Y94.775 E10.54035
; stop printing object 4.5 inch Top id:0 copy 0
EXCLUDE_OBJECT_END NAME=4_5_inch_Top_id_0_copy_0
;LAYER_CHANGE
;Z:0.6
;HEIGHT:0.25
TIMELAPSE_TAKE_FRAME
G1 E10.04035 F2400
G92 E0
G1 Z.55 F9000
G1 Z.6
G1 Z.8
G1 X80.887 Y101.198
G1 Z.6
G1 E.5 F2400
;TYPE:Skirt/Brim
;WIDTH:0.44
G1 F1800
G1 X80.142 Y100.693 E.53542
G1 X79.426 Y100.132 E.57122
G1 X77.834 Y98.581 E.65869
G1 X76.162 Y96.342 E.76866
G1 X75.264 Y94.673 E.84324
G1 X74.831 Y93.657 E.8867
G1 X74.219 Y91.796 E.96379
G1 X73.841 Y89.756 E1.04544
G1 X73.745 Y88.624 E1.09015
G1 X73.739 Y86.818 E1.16122
G1 X74.175 Y83.925 E1.27635
G1 X74.785 Y81.981 E1.35653
G1 X75.166 Y81.083 E1.39492
G1 X75.836 Y79.752 E1.45356
G1 X77.163 Y77.773 E1.54733
G1 X77.914 Y76.875 E1.5934
G1 X79.065 Y75.712 E1.65779
G1 X79.784 Y75.108 E1.69474
G1 X81.571 Y73.846 E1.78083
G1 X83.259 Y72.961 E1.85583
G1 X84.212 Y72.57 E1.89637
G1 X86.224 Y71.938 E1.97936
G1 X87.901 Y71.64 E2.04639
G1 X88.923 Y71.534 E2.08682
G1 X90.705 Y71.511 E2.15695
G1 X91.628 Y71.586 E2.19339
G1 X93.729 Y71.929 E2.27717
G1 X95.592 Y72.49 E2.35374
G1 X96.489 Y72.857 E2.39188
G1 X98.01 Y73.603 E2.45855
G1 X99.875 Y74.842 E2.54666
G1 X100.779 Y75.584 E2.59268
G1 X102.28 Y77.08 E2.67608
G1 X103.927 Y79.346 E2.78632
G1 X104.877 Y81.158 E2.86683
G1 X105.175 Y81.903 E2.89841
G1 X105.728 Y83.556 E2.967
G1 X106.144 Y85.708 E3.05326
G1 X106.237 Y86.494 E3.08441
G1 X106.266 Y88.547 E3.16521
G1 X105.911 Y91.229 E3.27168
G1 X105.298 Y93.309 E3.35702
G1 X104.899 Y94.314 E3.39957
G1 X103.989 Y96.093 E3.47821
G1 X102.839 Y97.756 E3.55778
G1 X102.101 Y98.638 E3.60304
G1 X100.819 Y99.919 E3.67436
G1 X99.172 Y101.184 E3.75609
G1 X98.383 Y101.695 E3.79308
G1 X96.786 Y102.53 E3.864
G1 X95.749 Y102.954 E3.90809
G1 X94.132 Y103.483 E3.97504
G1 X92.109 Y103.87 E4.0561
G1 X91.059 Y103.978 E4.09764
G1 X89.114 Y103.994 E4.17418
G1 X86.308 Y103.592 E4.28573
G1 X84.413 Y103.023 E4.36359
G1 X83.461 Y102.635 E4.40405
G1 X81.702 Y101.75 E4.48154
G1 X80.937 Y101.232 E4.5179
G1 X81.142 Y100.93 F9000
G1 F1800
G1 X80.35 Y100.394 E4.55553
G1 X79.419 Y99.631 E4.6029
G1 X78.105 Y98.336 E4.6755
G1 X76.473 Y96.152 E4.78279
