; generated by PrusaSlicer 2.6.1-rc2+win64 on 2023-09-18 at 20:25:36 UTC


;
;

;
;
; 

; external perimeters extrusion width = 0.42mm
; perimeters extrusion width = 0.44mm
; infill extrusion width = 0.44mm
; solid infill extrusion width = 0.44mm
; top infill extrusion width = 0.44mm
; support material extrusion width = 0.35mm

M190 S60 ; set bed temperature and wait for it to be reached


; Pre-Processed for Cancel-Object support by preprocess_cancellation v0.2.0
; 1 known objects
EXCLUDE_OBJECT_DEFINE NAME=9_5_inch_Top_id_0_copy_0 CENTER=89.867,91.902 POLYGON=[[70.818,66.173],[70.818,113.873],[109.179,113.873],[109.179,66.173]]
M104 S215 ; set temperature
;TYPE:Custom
M117 ; Clear displays current message (This is included to avoid an error with Adaptive_Bed_Mesh
print_start EXTRUDER_TEMP=215 BED_TEMP=60
M109 S215 ; set temperature and wait for it to be reached
G21 ; set units to millimeters
G90 ; use absolute coordinates
M82 ; use absolute distances for extrusion
G92 E0
; Filament gcode
SET_PRESSURE_ADVANCE ADVANCE=0.049
M107
;LAYER_CHANGE
;Z:0.35
;HEIGHT:0.35
TIMELAPSE_TAKE_FRAME
G1 E-.5 F2400
G92 E0
G1 Z.35 F9000
G1 Z.55
G1 X70.014 Y67.948
G1 Z.35
G1 E.5 F2400
;TYPE:Skirt/Brim
;WIDTH:0.44
G1 F900
G1 X72.158 Y65.755 E.65958
G1 X74.571 Y63.807 E.82095
G1 X76.568 Y62.519 E.9446
G1 X77.395 Y62.053 E.99399
G1 X80.027 Y60.811 E1.14543
G1 X82.3 Y59.998 E1.27104
G1 X85.268 Y59.279 E1.42994
G1 X88.042 Y58.926 E1.57545
G1 X90.935 Y58.871 E1.72601
G1 X93.992 Y59.157 E1.88577
G1 X96.792 Y59.74 E2.03459
G1 X99.555 Y60.638 E2.18576
G1 X101.919 Y61.697 E2.32055
G1 X102.775 Y62.146 E2.37085
G1 X105.28 Y63.711 E2.52454
G1 X107.434 Y65.395 E2.66681
G1 X109.486 Y67.391 E2.81577
G1 X111.207 Y69.463 E2.95593
G1 X112.723 Y71.733 E3.09797
G1 X114.117 Y74.39 E3.2541
G1 X114.495 Y75.263 E3.3036
G1 X115.355 Y77.642 E3.43523
G1 X116.085 Y80.665 E3.59705
G1 X116.44 Y83.516 E3.74655
G1 X116.481 Y86.4 E3.89663
G1 X116.193 Y89.373 E4.05205
G1 X115.64 Y92.009 E4.1922
G1 X114.726 Y94.844 E4.34719
G1 X114.309 Y95.857 E4.40419
G1 X113.253 Y98.047 E4.5307
G1 X111.662 Y100.6 E4.68723
G1 X109.926 Y102.802 E4.83313
G1 X107.91 Y104.857 E4.98292
G1 X105.708 Y106.661 E5.13104
G1 X103.534 Y108.087 E5.26633
G1 X102.524 Y108.654 E5.3266
G1 X99.893 Y109.884 E5.47772
G1 X97.592 Y110.699 E5.60474
G1 X94.701 Y111.39 E5.75941
G1 X91.939 Y111.74 E5.90428
G1 X88.945 Y111.79 E6.06009
G1 X85.96 Y111.5 E6.21614
G1 X83.306 Y110.949 E6.35718
G1 X80.407 Y110.013 E6.51569
G1 X78.058 Y108.961 E6.64962
G1 X77.241 Y108.534 E6.69759
G1 X74.695 Y106.947 E6.8537
G1 X72.629 Y105.341 E6.98986
G1 X70.493 Y103.272 E7.1446
G1 X68.672 Y101.066 E7.29344
G1 X67.121 Y98.709 E7.44026
G1 X65.766 Y96.057 E7.59522
G1 X64.798 Y93.509 E7.73705
G1 X64.512 Y92.573 E7.78798
G1 X63.862 Y89.688 E7.94186
G1 X63.551 Y87.073 E8.07889
G1 X63.519 Y84.211 E8.22782
G1 X63.845 Y81.064 E8.39245
G1 X64.355 Y78.696 E8.51849
G1 X64.631 Y77.716 E8.57147
G1 X65.638 Y74.94 E8.72513
G1 X66.82 Y72.507 E8.86588
G1 X68.31 Y70.123 E9.01217
G1 X69.977 Y67.995 E9.15283
G1 X70.264 Y68.22 F9000
G1 F900
G1 X72.404 Y66.025 E9.31234
G1 X74.779 Y64.107 E9.47119
G1 X76.764 Y62.826 E9.59412
G1 X80.151 Y61.154 E9.79066
G1 X82.41 Y60.346 E9.9155
G1 X85.332 Y59.638 E10.07194
G1 X88.073 Y59.289 E10.21572
G1 X90.925 Y59.235 E10.36415
G1 X93.934 Y59.517 E10.52141
G1 X96.702 Y60.094 E10.66854
G1 X99.427 Y60.98 E10.81764
G1 X101.768 Y62.029 E10.95112
G1 X102.587 Y62.459 E10.99925
G1 X105.058 Y64 E11.15078
G1 X107.189 Y65.665 E11.2915
G1 X109.215 Y67.636 E11.43858
G1 X110.92 Y69.688 E11.5774
G1 X112.417 Y71.932 E11.71776
G1 X113.791 Y74.554 E11.87179
G1 X114.152 Y75.389 E11.91913
G1 X115.007 Y77.75 E12.04979
G1 X115.725 Y80.725 E12.20904
G1 X116.076 Y83.544 E12.35686
G1 X116.117 Y86.391 E12.50502
G1 X115.832 Y89.323 E12.6583
G1 X115.283 Y91.931 E12.79698
G1 X114.38 Y94.726 E12.94982
G1 X113.978 Y95.704 E13.00484
G1 X112.932 Y97.873 E13.13014
G1 X111.366 Y100.386 E13.28421
G1 X109.65 Y102.563 E13.42845
G1 X107.661 Y104.591 E13.57626
G1 X105.487 Y106.371 E13.72246
G1 X103.337 Y107.78 E13.85622
G1 X102.363 Y108.326 E13.91432
G1 X99.769 Y109.541 E14.06337
G1 X97.486 Y110.35 E14.1894
G1 X94.64 Y111.031 E14.34167
G1 X91.908 Y111.377 E14.48496
G1 X88.961 Y111.426 E14.63833
G1 X86.02 Y111.14 E14.79208
G1 X83.391 Y110.594 E14.9318
G1 X80.538 Y109.673 E15.0878
G1 X78.209 Y108.629 E15.22061
G1 X77.429 Y108.221 E15.26641
G1 X74.916 Y106.657 E15.42043
G1 X72.868 Y105.066 E15.55537
G1 X70.764 Y103.027 E15.70783
G1 X68.966 Y100.85 E15.85475
G1 X67.432 Y98.519 E15.99995
G1 X66.097 Y95.904 E16.15273
G1 X65.14 Y93.383 E16.29304
G1 X64.866 Y92.486 E16.34184
G1 X64.224 Y89.643 E16.4935
G1 X63.916 Y87.052 E16.62927
G1 X63.884 Y84.226 E16.77633
G1 X64.204 Y81.129 E16.93834
G1 X64.712 Y78.774 E17.0637
G1 X64.976 Y77.834 E17.1145
G1 X65.967 Y75.096 E17.26601
G1 X67.136 Y72.69 E17.4052
G1 X68.609 Y70.332 E17.54987
G1 X70.227 Y68.267 E17.68638
G1 X70.522 Y68.5 F9000
G1 F900
G1 X70.72 Y68.249 E17.70302
G1 X72.649 Y66.295 E17.84589
G1 X74.987 Y64.406 E18.00229
G1 X76.961 Y63.133 E18.12451
G1 X80.275 Y61.497 E18.31682
G1 X82.519 Y60.694 E18.44084
G1 X85.395 Y59.998 E18.59481
G1 X88.104 Y59.653 E18.73691
G1 X90.827 Y59.598 E18.87863
G1 X93.676 Y59.849 E19.02745
G1 X96.611 Y60.447 E19.18331
G1 X99.299 Y61.321 E19.33039
G1 X101.616 Y62.36 E19.46252
G1 X104.836 Y64.29 E19.65786
G1 X106.944 Y65.936 E19.79703
G1 X108.945 Y67.881 E19.94223
G1 X110.632 Y69.912 E20.07961
G1 X112.112 Y72.132 E20.21844
G1 X113.81 Y75.515 E20.4154
G1 X114.658 Y77.858 E20.54506
G1 X115.365 Y80.786 E20.70179
G1 X115.712 Y83.572 E20.84788
G1 X115.752 Y86.382 E20.99411
G1 X115.47 Y89.273 E21.14525
G1 X114.927 Y91.852 E21.28239
G1 X114.035 Y94.608 E21.43312
G1 X113.647 Y95.551 E21.48618
G1 X112.611 Y97.699 E21.61027
G1 X111.071 Y100.172 E21.76186
G1 X109.374 Y102.324 E21.90447
G1 X107.412 Y104.324 E22.05025
G1 X105.267 Y106.08 E22.19449
G1 X103.14 Y107.473 E22.32679
G1 X102.201 Y107.999 E22.38279
G1 X99.645 Y109.198 E22.5297
G1 X97.379 Y110.001 E22.65479
G1 X94.578 Y110.671 E22.80465
G1 X91.877 Y111.013 E22.94632
G1 X88.977 Y111.061 E23.09724
G1 X86.081 Y110.78 E23.24864
G1 X83.477 Y110.239 E23.38703
G1 X80.669 Y109.332 E23.54058
G1 X78.361 Y108.297 E23.6722
G1 X75.138 Y106.368 E23.86765
G1 X73.108 Y104.791 E24.00141
G1 X71.035 Y102.783 E24.15158
G1 X69.26 Y100.634 E24.29661
G1 X67.744 Y98.328 E24.44021
G1 X66.357 Y95.591 E24.59987
G1 X65.483 Y93.257 E24.72955
G1 X65.221 Y92.4 E24.77618
G1 X64.586 Y89.597 E24.92573
G1 X64.28 Y87.031 E25.0602
G1 X64.248 Y84.241 E25.20539
G1 X64.564 Y81.193 E25.36484
G1 X65.068 Y78.853 E25.48939
G1 X65.321 Y77.953 E25.53804
G1 X66.297 Y75.253 E25.68743
G1 X67.452 Y72.873 E25.82508
G1 X68.908 Y70.542 E25.96809
G1 X70.484 Y68.547 E26.10038
; printing object 9.5 inch Top id:0 copy 0
EXCLUDE_OBJECT_START NAME=9_5_inch_Top_id_0_copy_0
G1 E25.60038 F2400
G92 E0
G1 Z.55 F9000
G1 X99.855 Y101.346
G1 Z.35
G1 E.5 F2400
;TYPE:Perimeter
;WIDTH:0.44
G1 F900
G1 X99.126 Y101.789 E.54439
G1 X97.276 Y102.686 E.65137
G1 X95.364 Y103.37 E.75703
G1 X93.404 Y103.84 E.86191
G1 X91.301 Y104.106 E.97221
G1 X89.279 Y104.137 E1.07744
G1 X87.222 Y103.944 E1.18494
G1 X85.113 Y103.505 E1.29703
G1 X83.101 Y102.842 E1.40726
G1 X81.264 Y102.004 E1.51232
G1 X79.327 Y100.847 E1.62972
G1 X77.69 Y99.591 E1.73708
G1 X76.169 Y98.128 E1.84689
G1 X74.848 Y96.535 E1.95457
G1 X73.662 Y94.722 E2.0673
G1 X72.724 Y92.853 E2.17611
G1 X71.996 Y90.891 E2.285
G1 X71.458 Y88.698 E2.40249
G1 X71.198 Y86.622 E2.51136
G1 X71.173 Y84.527 E2.62038
G1 X71.388 Y82.399 E2.73167
G1 X71.829 Y80.372 E2.83961
G1 X72.572 Y78.194 E2.95935
G1 X73.46 Y76.328 E3.06688
G1 X74.549 Y74.569 E3.17453
G1 X75.862 Y72.895 E3.28523
G1 X77.314 Y71.421 E3.39289
G1 X78.944 Y70.096 E3.50219
G1 X80.672 Y68.986 E3.60906
G1 X82.66 Y68.004 E3.72444
G1 X84.598 Y67.305 E3.83164
G1 X86.602 Y66.822 E3.9389
G1 X88.686 Y66.559 E4.0482
G1 X90.746 Y66.528 E4.1554
G1 X92.817 Y66.726 E4.26365
G1 X94.887 Y67.16 E4.3737
G1 X96.855 Y67.807 E4.4815
G1 X98.708 Y68.651 E4.58745
G1 X100.645 Y69.809 E4.70488
G1 X102.302 Y71.082 E4.81361
G1 X103.811 Y72.536 E4.92265
G1 X105.16 Y74.165 E5.03271
G1 X106.341 Y75.975 E5.14517
G1 X107.29 Y77.87 E5.25545
G1 X107.905 Y79.537 E5.34791
G1 X108.052 Y79.964 E5.37141
G1 X108.544 Y82.017 E5.48126
G1 X108.765 Y83.802 E5.57485
G1 X108.805 Y84.394 E5.60572
G1 X108.824 Y86.2 E5.6997
G1 X108.606 Y88.318 E5.81049
G1 X108.166 Y90.333 E5.91781
G1 X107.585 Y92.051 E6.01218
G1 X107.357 Y92.643 E6.04519
G1 X106.519 Y94.395 E6.14625
G1 X105.452 Y96.115 E6.25157
G1 X104.135 Y97.787 E6.36232
G1 X102.687 Y99.254 E6.46958
G1 X101.084 Y100.554 E6.57697
G1 X99.906 Y101.313 E6.64989
G1 X100.047 Y101.644 F9000
;TYPE:External perimeter
;WIDTH:0.42
G1 F900
G1 X99.291 Y102.104 E6.69341
G1 X97.406 Y103.016 E6.7964
G1 X95.466 Y103.71 E6.89773
G1 X93.468 Y104.19 E6.99879
G1 X91.326 Y104.461 E7.10498
G1 X89.265 Y104.492 E7.20636
G1 X87.169 Y104.296 E7.3099
G1 X85.021 Y103.848 E7.41782
G1 X82.971 Y103.173 E7.52397
G1 X81.099 Y102.319 E7.62517
G1 X79.128 Y101.141 E7.7381
G1 X77.458 Y99.861 E7.84158
G1 X75.909 Y98.37 E7.94732
G1 X74.562 Y96.746 E8.05109
G1 X73.354 Y94.899 E8.15963
G1 X72.398 Y92.995 E8.26441
G1 X71.656 Y90.995 E8.36933
G1 X71.108 Y88.763 E8.48236
G1 X70.844 Y86.646 E8.58729
G1 X70.818 Y84.511 E8.6923
G1 X71.037 Y82.343 E8.79947
G1 X71.487 Y80.277 E8.90346
G1 X72.243 Y78.06 E9.01866
G1 X73.148 Y76.158 E9.12225
G1 X74.257 Y74.365 E9.22594
G1 X75.595 Y72.661 E9.33249
G1 X77.075 Y71.158 E9.43623
G1 X78.736 Y69.808 E9.5415
G1 X80.497 Y68.677 E9.64443
G1 X82.521 Y67.677 E9.75546
G1 X84.496 Y66.964 E9.85873
G1 X86.538 Y66.473 E9.96202
G1 X88.661 Y66.204 E10.06727
G1 X90.76 Y66.173 E10.17051
G1 X92.87 Y66.374 E10.27475
G1 X94.979 Y66.816 E10.38073
G1 X96.984 Y67.476 E10.48455
G1 X98.874 Y68.336 E10.58667
G1 X100.845 Y69.515 E10.69963
G1 X102.534 Y70.813 E10.8044
G1 X104.072 Y72.295 E10.90944
G1 X105.446 Y73.954 E11.01538
G1 X106.649 Y75.798 E11.12367
G1 X107.616 Y77.728 E11.22984
G1 X108.238 Y79.414 E11.31822
G1 X108.395 Y79.87 E11.34194
G1 X108.894 Y81.954 E11.44733
G1 X109.117 Y83.758 E11.53673
G1 X109.159 Y84.39 E11.56788
G1 X109.179 Y86.217 E11.65774
G1 X108.957 Y88.374 E11.76439
G1 X108.508 Y90.428 E11.8678
G1 X107.867 Y92.323 E11.96619
G1 X107.68 Y92.79 E11.99093
G1 X106.831 Y94.566 E12.08774
G1 X105.743 Y96.319 E12.18921
G1 X104.402 Y98.023 E12.29586
G1 X102.926 Y99.517 E12.39915
G1 X101.293 Y100.842 E12.50258
G1 X100.098 Y101.611 E12.57247
G1 X99.691 Y101.462 F9000
G1 E12.07247 F2400
G92 E0
G1 Z.55 F9000
G1 X99.917 Y101.329
G1 X94.297 Y96.608
G1 X79.017 Y81.328
G1 X79.167 Y81.178
G1 X79.222 Y81.234
G1 Z.35
G1 E.5 F2400
;TYPE:Perimeter
;WIDTH:0.44
G1 F900
G1 X79.308 Y81.022 E.5119
G1 X79.485 Y80.835 E.5253
G1 X85.59 Y74.73 E.97455
G1 X85.824 Y74.594 E.98863
G1 X86.026 Y74.58 E.99917
G1 X86.281 Y74.682 E1.01346
G1 X86.907 Y75.302 E1.05931
G1 X100.895 Y89.289 E2.08861
G1 X101.031 Y89.524 E2.10274
G1 X101.044 Y89.739 E2.11395
G1 X100.951 Y89.968 E2.12681
G1 X100.811 Y90.119 E2.13752
G1 X94.67 Y96.26 E2.58942
G1 X94.475 Y96.384 E2.60144
G1 X94.202 Y96.406 E2.61569
G1 X93.924 Y96.26 E2.63203
G1 X79.365 Y81.701 E3.70339
G1 X79.248 Y81.523 E3.71447
G1 X79.222 Y81.292 E3.72657
G1 X79.568 Y81.301 F9000
;TYPE:External perimeter
;WIDTH:0.42
G1 F900
G1 X79.736 Y81.086 E3.73999
G1 X85.841 Y74.981 E4.16462
G1 X85.917 Y74.937 E4.16894
G1 X86.067 Y74.965 E4.17644
G1 X100.644 Y89.54 E5.19026
G1 X100.693 Y89.687 E5.19788
G1 X100.56 Y89.868 E5.20893
G1 X94.419 Y96.009 E5.63606
G1 X94.299 Y96.059 E5.64245
G1 X94.175 Y96.009 E5.64903
G1 X79.616 Y81.45 E6.66167
G1 X79.586 Y81.358 E6.66643
G1 X79.359 Y81.124 F9000
G1 E6.16643 F2400
G92 E0
G1 Z.55 F9000
G1 X101.455 Y70.569
G1 Z.35
G1 E.5 F2400
;TYPE:Solid infill
;WIDTH:0.442353
G1 F900
G1 X103.617 Y72.732 E.66016
G1 X104.939 Y74.327 E.76865
G1 X105.399 Y75.033 E.81278
G1 X100.269 Y69.903 E1.19272
G1 X98.977 Y69.13 E1.27157
G1 X106.248 Y76.401 E1.81007
G1 X106.769 Y77.442 E1.87103
G1 X97.92 Y68.593 E2.5264
G1 X96.966 Y68.158 E2.58131
G1 X107.185 Y78.377 E3.33815
G1 X107.489 Y79.201 E3.38415
G1 X96.153 Y67.864 E4.22375
G1 X95.379 Y67.61 E4.26641
G1 X107.768 Y79.999 E5.18396
G1 X107.937 Y80.687 E5.22106
G1 X94.637 Y67.387 E6.20608
G1 X93.98 Y67.249 E6.24124
G1 X108.105 Y81.375 E7.2874
G1 X108.274 Y82.062 E7.32445
G1 X93.323 Y67.111 E8.43175
G1 X92.679 Y66.987 E8.4661
G1 X108.348 Y82.656 E9.62658
G1 X108.421 Y83.248 E9.65782
G1 X92.105 Y66.933 E10.86618
G1 X91.531 Y66.878 E10.89638
G1 X108.494 Y83.841 E12.15269
G1 X108.528 Y84.115 E12.16715
G1 X108.531 Y84.397 E12.18192
G1 X90.957 Y66.823 E13.48349
G1 X90.735 Y66.802 E13.49517
G1 X90.421 Y66.807 E13.51162
G1 X108.537 Y84.922 E14.85329
G1 X108.542 Y85.447 E14.88079
G1 X89.91 Y66.814 E16.26075
G1 X89.398 Y66.822 E16.28757
G1 X108.548 Y85.972 E17.70586
G1 X108.55 Y86.188 E17.71717
G1 X108.521 Y86.465 E17.73176
G1 X88.886 Y66.83 E19.18597
G1 X88.705 Y66.832 E19.19545
G1 X88.407 Y66.87 E19.21118
G1 X108.473 Y86.936 E20.69731
G1 X108.424 Y87.407 E20.72211
G1 X87.946 Y66.928 E22.23879
G1 X87.485 Y66.987 E22.26313
G1 X108.376 Y87.878 E23.81036
G1 X108.321 Y88.341 E23.83478
G1 X87.024 Y67.045 E25.41204
G1 X86.571 Y67.111 E25.43601
G1 X108.227 Y88.768 E27.03993
G1 X108.134 Y89.194 E27.06276
G1 X86.153 Y67.212 E28.69075
G1 X85.734 Y67.313 E28.71332
G1 X108.041 Y89.62 E30.36542
G1 X107.948 Y90.046 E30.38825
G1 X85.315 Y67.414 E32.06446
G1 X84.897 Y67.515 E32.08698
G1 X107.836 Y90.454 E33.78589
G1 X107.705 Y90.842 E33.80734
G1 X84.496 Y67.633 E35.52625
G1 X84.114 Y67.77 E35.5475
G1 X107.573 Y91.23 E37.28496
G1 X107.442 Y91.618 E37.30641
G1 X83.732 Y67.908 E39.06242
G1 X83.35 Y68.046 E39.08369
G1 X107.311 Y92.006 E40.85825
G1 X107.17 Y92.385 E40.87943
G1 X82.969 Y68.183 E42.67184
G1 X82.603 Y68.337 E42.69263
G1 X107.007 Y92.741 E44.50004
G1 X106.839 Y93.092 E44.52042
G1 X82.255 Y68.509 E46.34112
G1 X81.908 Y68.68 E46.36138
G1 X106.671 Y93.443 E48.19538
G1 X106.503 Y93.795 E48.21581
G1 X81.56 Y68.852 E50.06314
G1 X81.213 Y69.024 E50.08342
G1 X106.335 Y94.146 E51.94401
G1 X106.146 Y94.477 E51.96397
G1 X101.32 Y89.651 E52.32139
G1 X101.295 Y89.452 E52.33189
G1 X101.242 Y89.31 E52.33983
G1 X101.094 Y89.101 E52.35324
G1 X86.524 Y74.532 E53.43229
G1 X86.336 Y74.394 E53.4445
G1 X86.203 Y74.339 E53.45204
G1 X85.978 Y74.309 E53.46393
G1 X80.865 Y69.196 E53.84261
G1 X80.544 Y69.394 E53.86236
G1 X85.564 Y74.414 E54.23415
G1 X85.402 Y74.531 E54.24462
G1 X85.282 Y74.651 E54.25351
G1 X80.227 Y69.597 E54.62786
G1 X79.911 Y69.8 E54.64753
G1 X85.022 Y74.911 E55.02606
G1 X84.763 Y75.171 E55.04528
G1 X79.595 Y70.003 E55.42803
G1 X79.279 Y70.206 E55.4477
G1 X84.503 Y75.43 E55.8346
G1 X84.243 Y75.69 E55.85386
G1 X78.976 Y70.423 E56.24394
G1 X78.689 Y70.656 E56.2633
G1 X83.983 Y75.95 E56.65538
G1 X83.724 Y76.209 E56.67456
G1 X78.403 Y70.888 E57.06864
G1 X78.116 Y71.121 E57.088
G1 X83.464 Y76.469 E57.48408
G1 X83.204 Y76.729 E57.50334
G1 X77.83 Y71.354 E57.90139
G1 X77.543 Y71.587 E57.92075
G1 X82.945 Y76.988 E58.3208
G1 X82.685 Y77.248 E58.34006
G1 X77.281 Y71.844 E58.74029
G1 X77.024 Y72.106 E58.75951
G1 X82.425 Y77.508 E59.15956
G1 X82.166 Y77.767 E59.17874
G1 X76.766 Y72.368 E59.57864
G1 X76.508 Y72.629 E59.59786
G1 X81.906 Y78.027 E59.99765
G1 X81.646 Y78.287 E60.01691
G1 X76.251 Y72.891 E60.41651
G1 X76.002 Y73.161 E60.43574
G1 X81.387 Y78.546 E60.83456
G1 X81.127 Y78.806 E60.85382
G1 X75.773 Y73.452 E61.25035
G1 X75.545 Y73.743 E61.26971
G1 X80.867 Y79.066 E61.66391
G1 X80.608 Y79.325 E61.68309
G1 X75.316 Y74.034 E62.07499
G1 X75.088 Y74.325 E62.09435
G1 X80.348 Y79.585 E62.48392
G1 X80.088 Y79.845 E62.50318
G1 X74.859 Y74.616 E62.89045
G1 X74.65 Y74.926 E62.91003
G1 X79.829 Y80.105 E63.2936
G1 X79.569 Y80.364 E63.31282
G1 X74.451 Y75.246 E63.69187
G1 X74.252 Y75.567 E63.71165
G1 X79.309 Y80.624 E64.08618
G1 X79.166 Y80.767 E64.09677
G1 X79.07 Y80.904 E64.10553
G1 X73.935 Y75.769 E64.48584
G1 E63.98584 F2400
G92 E0
G1 Z.55 F9000
G1 X101.092 Y89.942
G1 Z.35
G1 E.5 F2400
G1 F900
G1 X105.947 Y94.797 E.85957
G1 X105.748 Y95.118 E.87935
G1 X100.974 Y90.343 E1.23296
