; generated by PrusaSlicer 2.6.1+win64 on 2023-09-16 at 18:38:16 UTC


;
;

;
;
; 

; external perimeters extrusion width = 0.42mm
; perimeters extrusion width = 0.44mm
; infill extrusion width = 0.44mm
; solid infill extrusion width = 0.44mm
; top infill extrusion width = 0.44mm
; support material extrusion width = 0.35mm

M190 S60 ; set bed temperature and wait for it to be reached


; Pre-Processed for Cancel-Object support by preprocess_cancellation v0.2.0
; 1 known objects
EXCLUDE_OBJECT_DEFINE NAME=square_tower_PressureAdvace_stl_id_0_copy_0 CENTER=89.968,89.181 POLYGON=[[57.211,57.237],[57.211,122.763],[122.789,122.763],[122.789,57.237]]
M104 S215 ; set temperature
;TYPE:Custom
M117 ; Clear displays current message (This is included to avoid an error with Adaptive_Bed_Mesh
print_start EXTRUDER_TEMP=215 BED_TEMP=60
M109 S215 ; set temperature and wait for it to be reached
G21 ; set units to millimeters
G90 ; use absolute coordinates
M82 ; use absolute distances for extrusion
G92 E0
; Filament gcode
;SET_PRESSURE_ADVANCE ADVANCE=0.2
M107
;LAYER_CHANGE
;Z:0.35
;HEIGHT:0.35
TIMELAPSE_TAKE_FRAME
G1 E-.5 F2400
G92 E0
G1 Z.35 F9000
G1 Z.55
G1 X53.382 Y53.537
G1 Z.35
G1 E.5 F2400
;TYPE:Skirt/Brim
;WIDTH:0.44
G1 F900
G1 X54.484 Y52.545 E.57715
G1 X55.33 Y51.93 E.63157
G1 X56.614 Y51.189 E.70871
G1 X57.569 Y50.763 E.76312
G1 X58.98 Y50.305 E.84031
G1 X60.002 Y50.088 E.89467
G1 X61.477 Y49.933 E.97184
G1 X118.523 Y49.933 E3.94019
G1 X119.998 Y50.088 E4.01736
G1 X121.02 Y50.305 E4.07172
G1 X122.431 Y50.763 E4.14891
G1 X123.386 Y51.189 E4.20332
G1 X124.67 Y51.93 E4.28046
G1 X125.516 Y52.544 E4.33485
G1 X126.618 Y53.537 E4.41204
G1 X127.318 Y54.314 E4.46646
G1 X128.189 Y55.514 E4.54362
G1 X128.712 Y56.419 E4.59801
G1 X129.315 Y57.774 E4.67518
G1 X129.638 Y58.768 E4.72956
G1 X129.946 Y60.219 E4.80674
G1 X130.056 Y61.258 E4.86111
G1 X130.095 Y118 E7.81364
G1 X129.946 Y119.781 E7.90664
G1 X129.638 Y121.232 E7.98382
G1 X129.315 Y122.226 E8.0382
G1 X128.712 Y123.581 E8.11537
G1 X128.189 Y124.486 E8.16976
G1 X127.318 Y125.686 E8.24692
G1 X126.618 Y126.463 E8.30134
G1 X125.516 Y127.456 E8.37853
G1 X124.67 Y128.07 E8.43292
G1 X123.386 Y128.811 E8.51006
G1 X122.431 Y129.236 E8.56445
G1 X121.02 Y129.695 E8.64166
G1 X119.997 Y129.912 E8.69608
G1 X118.523 Y130.067 E8.7732
G1 X61.477 Y130.067 E11.74155
G1 X60.002 Y129.912 E11.81872
G1 X58.98 Y129.695 E11.87308
G1 X57.569 Y129.237 E11.95027
G1 X56.614 Y128.811 E12.00468
G1 X55.33 Y128.07 E12.08182
G1 X54.484 Y127.455 E12.13624
G1 X53.382 Y126.463 E12.21339
G1 X52.683 Y125.686 E12.26777
G1 X51.811 Y124.486 E12.34496
G1 X51.288 Y123.581 E12.39935
G1 X50.685 Y122.226 E12.47652
G1 X50.362 Y121.232 E12.5309
G1 X50.053 Y119.781 E12.60809
G1 X49.905 Y118 E12.70108
G1 X49.905 Y62 E15.615
G1 X50.053 Y60.219 E15.70799
G1 X50.362 Y58.768 E15.78518
G1 X50.685 Y57.774 E15.83956
G1 X51.288 Y56.419 E15.91673
G1 X51.811 Y55.514 E15.97112
G1 X52.683 Y54.314 E16.04831
G1 X53.342 Y53.582 E16.09956
G1 X53.613 Y53.826 F9000
G1 F900
G1 X54.699 Y52.84 E16.17589
G1 X55.544 Y52.225 E16.23027
G1 X56.763 Y51.522 E16.30349
G1 X57.718 Y51.097 E16.35788
G1 X59.056 Y50.662 E16.43109
G1 X60.078 Y50.445 E16.48545
G1 X61.477 Y50.298 E16.55865
G1 X118.523 Y50.298 E19.527
G1 X119.922 Y50.445 E19.6002
G1 X120.944 Y50.662 E19.65456
G1 X122.282 Y51.097 E19.72777
G1 X123.237 Y51.522 E19.78216
G1 X124.456 Y52.225 E19.85538
G1 X125.301 Y52.84 E19.90976
G1 X126.347 Y53.781 E19.98297
G1 X127.046 Y54.558 E20.03735
G1 X127.873 Y55.696 E20.11055
G1 X128.396 Y56.602 E20.16498
G1 X128.968 Y57.887 E20.23817
G1 X129.291 Y58.881 E20.29255
G1 X129.584 Y60.257 E20.36575
G1 X129.693 Y61.296 E20.42011
G1 X129.73 Y118 E23.37066
G1 X129.584 Y119.743 E23.46167
G1 X129.291 Y121.119 E23.53487
G1 X128.968 Y122.113 E23.58925
G1 X128.396 Y123.398 E23.66244
G1 X127.873 Y124.304 E23.71687
G1 X127.046 Y125.442 E23.79007
G1 X126.347 Y126.219 E23.84445
G1 X125.301 Y127.16 E23.91766
G1 X124.456 Y127.775 E23.97204
G1 X123.237 Y128.478 E24.04526
G1 X122.283 Y128.903 E24.0996
G1 X120.944 Y129.338 E24.17286
G1 X119.922 Y129.555 E24.22722
G1 X118.523 Y129.702 E24.30042
G1 X61.477 Y129.702 E27.26877
G1 X60.078 Y129.555 E27.34197
G1 X59.056 Y129.338 E27.39633
G1 X57.717 Y128.903 E27.46959
G1 X56.763 Y128.478 E27.52393
G1 X55.544 Y127.775 E27.59715
G1 X54.699 Y127.16 E27.65153
G1 X53.653 Y126.219 E27.72474
G1 X52.954 Y125.442 E27.77912
G1 X52.127 Y124.304 E27.85232
G1 X51.604 Y123.399 E27.90671
G1 X51.032 Y122.113 E27.97995
G1 X50.709 Y121.119 E28.03433
G1 X50.416 Y119.743 E28.10753
G1 X50.27 Y118 E28.19854
G1 X50.27 Y62 E31.11246
G1 X50.416 Y60.257 E31.20347
G1 X50.709 Y58.881 E31.27667
G1 X51.032 Y57.887 E31.33105
G1 X51.604 Y56.601 E31.40429
G1 X52.127 Y55.696 E31.45868
G1 X52.954 Y54.558 E31.53188
G1 X53.573 Y53.87 E31.58004
G1 X53.844 Y54.115 F9000
G1 F900
G1 X54.913 Y53.135 E31.6555
G1 X55.759 Y52.521 E31.70989
G1 X56.911 Y51.855 E31.77913
G1 X57.866 Y51.43 E31.83352
G1 X59.132 Y51.019 E31.90278
G1 X60.154 Y50.802 E31.95714
G1 X61.477 Y50.663 E32.02636
G1 X118.523 Y50.663 E34.99471
G1 X119.846 Y50.802 E35.06393
G1 X120.868 Y51.019 E35.11829
G1 X122.134 Y51.43 E35.18755
G1 X123.089 Y51.855 E35.24194
G1 X124.241 Y52.52 E35.31115
G1 X125.087 Y53.135 E35.36557
G1 X126.076 Y54.025 E35.4348
G1 X126.775 Y54.802 E35.48918
G1 X127.557 Y55.879 E35.55844
G1 X128.08 Y56.784 E35.61283
G1 X128.621 Y58 E35.68208
G1 X128.944 Y58.994 E35.73646
G1 X129.221 Y60.295 E35.80567
G1 X129.33 Y61.334 E35.86003
G1 X129.365 Y118 E38.8086
G1 X129.221 Y119.705 E38.89763
G1 X128.944 Y121.006 E38.96684
G1 X128.621 Y122.001 E39.02127
G1 X128.08 Y123.216 E39.09048
G1 X127.557 Y124.121 E39.14487
G1 X126.775 Y125.198 E39.21413
G1 X126.076 Y125.975 E39.26851
G1 X125.087 Y126.865 E39.33774
G1 X124.241 Y127.48 E39.39216
G1 X123.089 Y128.145 E39.46137
G1 X122.134 Y128.57 E39.51576
G1 X120.868 Y128.981 E39.58502
G1 X119.846 Y129.198 E39.63938
G1 X118.523 Y129.337 E39.7086
G1 X61.477 Y129.337 E42.67695
G1 X60.154 Y129.198 E42.74617
G1 X59.132 Y128.981 E42.80053
G1 X57.866 Y128.57 E42.86979
G1 X56.911 Y128.145 E42.92418
G1 X55.759 Y127.479 E42.99342
G1 X54.913 Y126.865 E43.04781
G1 X53.924 Y125.975 E43.11704
G1 X53.225 Y125.198 E43.17142
G1 X52.443 Y124.122 E43.24063
G1 X51.92 Y123.216 E43.29506
G1 X51.379 Y122.001 E43.36427
G1 X51.056 Y121.006 E43.4187
G1 X50.779 Y119.705 E43.48791
G1 X50.635 Y118 E43.57694
G1 X50.635 Y62 E46.49086
G1 X50.779 Y60.295 E46.57989
G1 X51.056 Y58.994 E46.6491
G1 X51.379 Y57.999 E46.70353
G1 X51.92 Y56.784 E46.77274
G1 X52.443 Y55.879 E46.82713
G1 X53.225 Y54.802 E46.89639
G1 X53.804 Y54.159 E46.94141
; printing object square_tower--PressureAdvace.stl id:0 copy 0
EXCLUDE_OBJECT_START NAME=square_tower_PressureAdvace_stl_id_0_copy_0
G1 E46.44141 F2400
G92 E0
G1 Z.55 F9000
G1 X119.681 Y113.898
G1 Z.35
G1 E.5 F2400
;TYPE:Perimeter
;WIDTH:0.44
G1 F900
G1 X119.748 Y113.953 E.50451
G1 X120.216 Y114.162 E.53118
G1 X120.966 Y114.706 E.57939
G1 X121.586 Y115.395 E.62762
G1 X122.049 Y116.197 E.67581
G1 X122.335 Y117.079 E.72406
G1 X122.432 Y118 E.77225
G1 X122.335 Y118.921 E.82044
G1 X122.049 Y119.803 E.86869
G1 X121.586 Y120.605 E.91688
G1 X120.966 Y121.294 E.96511
G1 X120.216 Y121.838 E1.01332
G1 X119.37 Y122.215 E1.06151
G1 X118.463 Y122.408 E1.10976
G1 X117.537 Y122.408 E1.15794
G1 X116.63 Y122.215 E1.20619
G1 X115.784 Y121.838 E1.25438
G1 X115.034 Y121.294 E1.30259
G1 X114.416 Y120.606 E1.35071
G1 X113.845 Y119.621 E1.40995
G1 X113.61 Y119.462 E1.42471
G1 X113.443 Y119.435 E1.43351
G1 X66.557 Y119.435 E3.87319
G1 X66.39 Y119.462 E3.88199
G1 X66.248 Y119.535 E3.8903
G1 X66.098 Y119.702 E3.90198
G1 X65.584 Y120.606 E3.95609
G1 X64.966 Y121.294 E4.00421
G1 X64.216 Y121.838 E4.05242
G1 X63.37 Y122.215 E4.10061
G1 X62.463 Y122.408 E4.14886
G1 X61.537 Y122.408 E4.19704
G1 X60.63 Y122.215 E4.24529
G1 X59.784 Y121.838 E4.29348
G1 X59.034 Y121.294 E4.34169
G1 X58.414 Y120.605 E4.38992
G1 X57.951 Y119.803 E4.43811
G1 X57.665 Y118.922 E4.48631
G1 X57.568 Y118 E4.53455
G1 X57.665 Y117.078 E4.58279
G1 X57.951 Y116.197 E4.63099
G1 X58.414 Y115.395 E4.67918
G1 X59.034 Y114.706 E4.72741
G1 X59.784 Y114.162 E4.77562
G1 X60.122 Y114.011 E4.79488
G1 X60.41 Y113.845 E4.81218
G1 X60.539 Y113.635 E4.825
G1 X60.565 Y113.472 E4.83359
G1 X60.565 Y66.528 E7.27628
G1 X60.557 Y66.437 E7.28103
G1 X60.468 Y66.224 E7.29304
G1 X60.252 Y66.047 E7.30757
G1 X59.784 Y65.838 E7.33424
G1 X59.034 Y65.294 E7.38245
G1 X58.414 Y64.605 E7.43068
G1 X57.951 Y63.803 E7.47887
G1 X57.665 Y62.921 E7.52712
G1 X57.568 Y62 E7.57531
G1 X57.665 Y61.079 E7.6235
G1 X57.951 Y60.197 E7.67175
G1 X58.414 Y59.395 E7.71994
G1 X59.034 Y58.706 E7.76817
G1 X59.784 Y58.162 E7.81638
G1 X60.63 Y57.785 E7.86457
G1 X61.537 Y57.592 E7.91282
G1 X62.463 Y57.592 E7.961
G1 X63.37 Y57.785 E8.00925
G1 X64.216 Y58.162 E8.05744
G1 X64.966 Y58.706 E8.10565
G1 X65.584 Y59.393 E8.15373
G1 X66.155 Y60.379 E8.21302
G1 X66.39 Y60.538 E8.22778
G1 X66.557 Y60.565 E8.23658
G1 X113.443 Y60.565 E10.67626
G1 X113.534 Y60.557 E10.68101
G1 X113.752 Y60.465 E10.69332
G1 X113.902 Y60.298 E10.705
G1 X114.416 Y59.393 E10.75916
G1 X115.034 Y58.706 E10.80724
G1 X115.784 Y58.162 E10.85545
G1 X116.63 Y57.785 E10.90364
G1 X117.537 Y57.592 E10.95189
G1 X118.463 Y57.592 E11.00007
G1 X119.37 Y57.785 E11.04832
G1 X120.216 Y58.162 E11.09651
G1 X120.966 Y58.706 E11.14472
G1 X121.586 Y59.395 E11.19295
G1 X122.049 Y60.197 E11.24114
G1 X122.335 Y61.079 E11.28939
G1 X122.432 Y62 E11.33758
G1 X122.335 Y62.921 E11.38577
G1 X122.049 Y63.803 E11.43402
G1 X121.586 Y64.605 E11.48221
G1 X120.966 Y65.294 E11.53044
G1 X120.216 Y65.838 E11.57865
G1 X119.748 Y66.047 E11.60532
G1 X119.532 Y66.224 E11.61985
G1 X119.435 Y66.528 E11.63645
G1 X119.435 Y113.472 E14.07914
G1 X119.443 Y113.563 E14.08389
G1 X119.532 Y113.776 E14.0959
G1 X119.634 Y113.86 E14.10278
G1 X119.892 Y113.629 F9000
;TYPE:External perimeter
;WIDTH:0.42
G1 F900
G1 X120.394 Y113.853 E14.12982
G1 X121.204 Y114.441 E14.17905
G1 X121.874 Y115.185 E14.22829
G1 X122.375 Y116.052 E14.27754
G1 X122.684 Y117.004 E14.32677
G1 X122.789 Y118 E14.37603
G1 X122.684 Y118.996 E14.42529
G1 X122.375 Y119.948 E14.47452
G1 X121.874 Y120.815 E14.52377
G1 X121.204 Y121.559 E14.57301
G1 X120.394 Y122.147 E14.62224
G1 X119.48 Y122.554 E14.67145
G1 X118.501 Y122.763 E14.72068
G1 X117.499 Y122.763 E14.76996
G1 X116.52 Y122.554 E14.81919
G1 X115.606 Y122.147 E14.8684
G1 X114.796 Y121.559 E14.91763
G1 X114.126 Y120.815 E14.96687
G1 X113.575 Y119.851 E15.02148
G1 X113.443 Y119.79 E15.02863
G1 X66.557 Y119.79 E17.33458
G1 X66.502 Y119.799 E17.33732
G1 X66.407 Y119.877 E17.34337
G1 X65.874 Y120.815 E17.39643
G1 X65.204 Y121.559 E17.44567
G1 X64.394 Y122.147 E17.4949
G1 X63.48 Y122.554 E17.54411
G1 X62.501 Y122.763 E17.59334
G1 X61.499 Y122.763 E17.64262
G1 X60.52 Y122.554 E17.69185
G1 X59.606 Y122.147 E17.74106
G1 X58.796 Y121.559 E17.79029
G1 X58.126 Y120.815 E17.83953
G1 X57.625 Y119.948 E17.88878
G1 X57.316 Y118.996 E17.93801
G1 X57.211 Y118 E17.98727
G1 X57.316 Y117.004 E18.03653
G1 X57.625 Y116.052 E18.08576
G1 X58.126 Y115.185 E18.13501
G1 X58.796 Y114.441 E18.18425
G1 X59.606 Y113.853 E18.23348
G1 X60.14 Y113.61 E18.26233
G1 X60.21 Y113.472 E18.26994
G1 X60.21 Y66.528 E20.57875
G1 X60.201 Y66.475 E20.58139
G1 X60.108 Y66.371 E20.58825
G1 X59.606 Y66.147 E20.61529
G1 X58.796 Y65.559 E20.66452
G1 X58.126 Y64.815 E20.71376
G1 X57.625 Y63.948 E20.76301
G1 X57.316 Y62.996 E20.81224
G1 X57.211 Y62 E20.8615
G1 X57.316 Y61.004 E20.91076
G1 X57.625 Y60.052 E20.95999
G1 X58.126 Y59.185 E21.00924
G1 X58.796 Y58.441 E21.05848
G1 X59.606 Y57.853 E21.10771
G1 X60.52 Y57.446 E21.15692
G1 X61.499 Y57.237 E21.20615
G1 X62.501 Y57.237 E21.25543
G1 X63.48 Y57.446 E21.30466
G1 X64.394 Y57.853 E21.35387
G1 X65.204 Y58.441 E21.4031
G1 X65.874 Y59.185 E21.45234
G1 X66.425 Y60.149 E21.50695
G1 X66.557 Y60.21 E21.5141
G1 X113.443 Y60.21 E23.82005
G1 X113.473 Y60.207 E23.82153
G1 X113.593 Y60.123 E23.82873
G1 X114.126 Y59.185 E23.88179
G1 X114.796 Y58.441 E23.93103
G1 X115.606 Y57.853 E23.98026
G1 X116.52 Y57.446 E24.02947
G1 X117.499 Y57.237 E24.0787
G1 X118.501 Y57.237 E24.12798
G1 X119.48 Y57.446 E24.17721
G1 X120.394 Y57.853 E24.22642
G1 X121.204 Y58.441 E24.27565
G1 X121.874 Y59.185 E24.32489
G1 X122.375 Y60.052 E24.37414
G1 X122.684 Y61.004 E24.42337
G1 X122.789 Y62 E24.47263
G1 X122.684 Y62.996 E24.52189
G1 X122.375 Y63.948 E24.57112
G1 X121.874 Y64.815 E24.62037
G1 X121.204 Y65.559 E24.66961
G1 X120.394 Y66.147 E24.71884
G1 X119.86 Y66.39 E24.74769
G1 X119.79 Y66.528 E24.7553
G1 X119.79 Y113.472 E27.06411
G1 X119.799 Y113.525 E27.06675
G1 X119.852 Y113.585 E27.07069
G1 X119.857 Y114.028 F9000
G1 E26.57069 F2400
G92 E0
G1 Z.55 F9000
G1 X64.629 Y64.566
G1 Z.35
G1 E.5 F2400
;TYPE:Perimeter
;WIDTH:0.44
G1 F900
G1 X64.666 Y64.526 E.50284
G1 X64.836 Y64.45 E.51253
G1 X65.76 Y64.435 E.56062
G1 X88.449 Y64.435 E1.74122
G1 X88.644 Y64.042 E1.76405
G1 X88.871 Y63.943 E1.77694
G1 X91.038 Y63.935 E1.8897
G1 X91.21 Y63.964 E1.89878
G1 X91.356 Y64.042 E1.90739
G1 X91.551 Y64.435 E1.93022
G1 X115.038 Y64.435 E3.15235
G1 X115.256 Y64.483 E3.16397
G1 X115.469 Y64.659 E3.17835
G1 X115.557 Y64.873 E3.19039
G1 X115.565 Y65.745 E3.23577
G1 X115.565 Y88.449 E4.41715
G1 X115.958 Y88.644 E4.43998
G1 X116.057 Y88.871 E4.45287
G1 X116.065 Y91.038 E4.56563
G1 X116.036 Y91.21 E4.57471
G1 X115.958 Y91.356 E4.58332
G1 X115.565 Y91.551 E4.60615
G1 X115.565 Y115.038 E5.82828
G1 X115.491 Y115.307 E5.8428
G1 X115.334 Y115.474 E5.85473
G1 X115.164 Y115.55 E5.86442
G1 X114.24 Y115.565 E5.91251
G1 X91.551 Y115.565 E7.09311
G1 X91.356 Y115.958 E7.11594
G1 X91.129 Y116.057 E7.12883
G1 X88.962 Y116.065 E7.24159
G1 X88.79 Y116.036 E7.25067
G1 X88.644 Y115.958 E7.25928
G1 X88.449 Y115.565 E7.28211
G1 X64.962 Y115.565 E8.50424
G1 X64.744 Y115.517 E8.51586
G1 X64.558 Y115.376 E8.528
G1 X64.443 Y115.128 E8.54222
G1 X64.435 Y114.255 E8.58765
G1 X64.435 Y87.551 E9.97717
G1 X64.042 Y87.356 E10
G1 X63.943 Y87.129 E10.01289
G1 X63.935 Y84.962 E10.12565
G1 X63.964 Y84.79 E10.13473
G1 X64.042 Y84.644 E10.14334
G1 X64.435 Y84.449 E10.16617
G1 X64.435 Y64.962 E11.18016
G1 X64.509 Y64.693 E11.19468
G1 X64.588 Y64.609 E11.20068
G1 X64.861 Y64.823 F9000
;TYPE:External perimeter
;WIDTH:0.42
G1 F900
G1 X64.962 Y64.79 E11.20591
G1 X88.79 Y64.79 E12.37782
G1 X88.79 Y64.462 E12.39395
G1 X88.906 Y64.299 E12.40379
G1 X91.038 Y64.29 E12.50865
G1 X91.142 Y64.325 E12.51405
G1 X91.21 Y64.462 E12.52157
G1 X91.21 Y64.79 E12.5377
G1 X115.038 Y64.79 E13.70961
G1 X115.175 Y64.859 E13.71715
G1 X115.21 Y64.962 E13.7225
G1 X115.21 Y88.79 E14.89441
G1 X115.538 Y88.79 E14.91054
G1 X115.701 Y88.906 E14.92038
G1 X115.71 Y91.038 E15.02524
G1 X115.675 Y91.142 E15.03064
G1 X115.538 Y91.21 E15.03816
G1 X115.21 Y91.21 E15.05429
G1 X115.21 Y115.038 E16.2262
G1 X115.139 Y115.177 E16.23388
G1 X115.038 Y115.21 E16.23911
G1 X91.21 Y115.21 E17.41102
G1 X91.21 Y115.538 E17.42715
G1 X91.094 Y115.701 E17.43699
G1 X88.962 Y115.71 E17.54185
G1 X88.858 Y115.675 E17.54725
G1 X88.79 Y115.538 E17.55477
G1 X88.79 Y115.21 E17.5709
G1 X64.962 Y115.21 E18.74281
G1 X64.83 Y115.148 E18.74998
G1 X64.79 Y115.038 E18.75574
G1 X64.79 Y87.21 E20.12438
G1 X64.462 Y87.21 E20.14051
G1 X64.299 Y87.094 E20.15035
G1 X64.29 Y84.962 E20.25521
G1 X64.325 Y84.858 E20.26061
G1 X64.462 Y84.79 E20.26813
G1 X64.79 Y84.79 E20.28426
G1 X64.79 Y64.962 E21.25944
G1 X64.834 Y64.877 E21.26415
G1 X64.839 Y64.719 F9000
G1 E20.76415 F2400
G92 E0
G1 Z.55 F9000
G1 X119.218 Y57.865
G1 Z.35
G1 E.5 F2400
;TYPE:Solid infill
;WIDTH:0.441213
G1 F900
G1 X121.862 Y60.509 E.69521
G1 X122.066 Y61.136 E.72963
G1 X122.077 Y61.242 E.73519
G1 X118.773 Y57.938 E.97913
G1 X118.434 Y57.866 E.99722
G1 X118.183 Y57.866 E1.01032
G1 X122.138 Y61.82 E1.30229
G1 X122.157 Y62 E1.31174
G1 X122.123 Y62.323 E1.3287
G1 X117.666 Y57.866 E1.65777
G1 X117.566 Y57.866 E1.66299
G1 X117.221 Y57.939 E1.6814
G1 X122.074 Y62.792 E2.03971
G1 X122.066 Y62.864 E2.04349
G1 X121.959 Y63.194 E2.0616
G1 X116.794 Y58.03 E2.44291
G1 X116.715 Y58.047 E2.44713
G1 X116.423 Y58.177 E2.46382
G1 X121.832 Y63.585 E2.86314
