; generated by PrusaSlicer 2.6.1-rc2+win64 on 2023-09-17 at 19:21:58 UTC


;
;

;
;
; 

; external perimeters extrusion width = 0.42mm
; perimeters extrusion width = 0.44mm
; infill extrusion width = 0.44mm
; solid infill extrusion width = 0.44mm
; top infill extrusion width = 0.44mm
; support material extrusion width = 0.35mm

M190 S60 ; set bed temperature and wait for it to be reached


; Pre-Processed for Cancel-Object support by preprocess_cancellation v0.2.0
; 1 known objects
EXCLUDE_OBJECT_DEFINE NAME=Tolorance_Test_Squares_Half_mm_clearance_stl_id_0_copy_0 CENTER=91.004,89.504 POLYGON=[[73.21,73.21],[73.21,106.79],[106.79,106.79],[106.79,73.21]]
M104 S215 ; set temperature
;TYPE:Custom
M117 ; Clear displays current message (This is included to avoid an error with Adaptive_Bed_Mesh
print_start EXTRUDER_TEMP=215 BED_TEMP=60
M109 S215 ; set temperature and wait for it to be reached
G21 ; set units to millimeters
G90 ; use absolute coordinates
M82 ; use absolute distances for extrusion
G92 E0
; Filament gcode
SET_PRESSURE_ADVANCE ADVANCE=0.049
M107
;LAYER_CHANGE
;Z:0.35
;HEIGHT:0.35
TIMELAPSE_TAKE_FRAME
G1 E-.5 F2400
G92 E0
G1 Z.35 F9000
G1 Z.55
G1 X67.45 Y68.581
G1 Z.35
G1 E.5 F2400
;TYPE:Skirt/Brim
;WIDTH:0.44
G1 F900
G1 X69.218 Y66.997 E.62352
G1 X71.41 Y66.086 E.74704
G1 X73 Y65.905 E.83031
G1 X107 Y65.905 E2.59947
G1 X109.341 Y66.303 E2.72303
G1 X111.419 Y67.45 E2.84654
G1 X113.003 Y69.218 E2.97006
G1 X113.914 Y71.41 E3.09358
G1 X114.095 Y73 E3.17685
G1 X114.095 Y107 E4.94601
G1 X113.697 Y109.341 E5.06957
G1 X112.55 Y111.419 E5.19308
G1 X110.782 Y113.003 E5.3166
G1 X108.59 Y113.914 E5.44012
G1 X107 Y114.095 E5.52339
G1 X73 Y114.095 E7.29255
G1 X70.659 Y113.697 E7.41611
G1 X68.581 Y112.55 E7.53962
G1 X66.997 Y110.782 E7.66314
G1 X66.086 Y108.59 E7.78666
G1 X65.905 Y107 E7.86993
G1 X65.905 Y73 E9.63909
G1 X66.303 Y70.659 E9.76265
G1 X67.421 Y68.634 E9.88301
G1 X67.75 Y68.821 F9000
G1 F900
G1 X67.811 Y68.714 E9.88942
G1 X69.568 Y67.211 E10.00973
G1 X71.729 Y66.391 E10.13
G1 X73 Y66.27 E10.19643
G1 X107 Y66.27 E11.96559
G1 X109.277 Y66.667 E12.08586
G1 X111.286 Y67.811 E12.20616
G1 X112.789 Y69.568 E12.32647
G1 X113.609 Y71.729 E12.44674
G1 X113.73 Y73 E12.51317
G1 X113.73 Y107 E14.28233
G1 X113.333 Y109.277 E14.4026
G1 X112.189 Y111.286 E14.5229
G1 X110.432 Y112.789 E14.64321
G1 X108.271 Y113.609 E14.76348
G1 X107 Y113.73 E14.82991
G1 X73 Y113.73 E16.59907
G1 X70.723 Y113.333 E16.71934
G1 X68.714 Y112.189 E16.83964
G1 X67.211 Y110.432 E16.95995
G1 X66.391 Y108.271 E17.08022
G1 X66.27 Y107 E17.14665
G1 X66.27 Y73 E18.91581
G1 X66.667 Y70.723 E19.03608
G1 X67.721 Y68.874 E19.14683
G1 X68.047 Y69.066 F9000
G1 F900
G1 X68.173 Y68.851 E19.1598
G1 X69.916 Y67.432 E19.27675
G1 X73 Y66.635 E19.4425
G1 X107 Y66.635 E21.21166
G1 X109.212 Y67.032 E21.3286
G1 X111.149 Y68.173 E21.44558
G1 X112.568 Y69.916 E21.56253
G1 X113.365 Y73 E21.72828
G1 X113.365 Y107 E23.49744
G1 X112.968 Y109.212 E23.61438
G1 X111.827 Y111.149 E23.73136
G1 X110.084 Y112.568 E23.84831
G1 X107 Y113.365 E24.01406
G1 X73 Y113.365 E25.78322
G1 X70.788 Y112.968 E25.90016
G1 X68.851 Y111.827 E26.01714
G1 X67.432 Y110.084 E26.13409
G1 X66.635 Y107 E26.29984
G1 X66.635 Y73 E28.069
G1 X67.032 Y70.788 E28.18594
G1 X68.016 Y69.117 E28.28684
; printing object Tolorance_Test_Squares_Half-mm_clearance.stl id:0 copy 0
EXCLUDE_OBJECT_START NAME=Tolorance_Test_Squares_Half_mm_clearance_stl_id_0_copy_0
G1 E27.78684 F2400
G92 E0
G1 Z.55 F9000
G1 X106.373 Y106.373
G1 Z.35
G1 E.5 F2400
;TYPE:Perimeter
;WIDTH:0.564903
G1 F900
G1 X105.931 Y106.393 E.5309
;WIDTH:0.524157
G1 X105.734 Y106.413 E.54358
;WIDTH:0.483412
G1 X105.538 Y106.434 E.55506
;WIDTH:0.442667
G1 X74.462 Y106.434 E2.18389
;WIDTH:0.483412
G1 X74.184 Y106.413 E2.20012
;WIDTH:0.524157
G1 X73.906 Y106.393 E2.21797
;WIDTH:0.564903
G1 X73.627 Y106.373 E2.23751
G1 X73.607 Y105.931 E2.26841
;WIDTH:0.524157
G1 X73.587 Y105.734 E2.28109
;WIDTH:0.483412
G1 X73.566 Y105.538 E2.29257
;WIDTH:0.442667
G1 X73.566 Y74.462 E3.9214
;WIDTH:0.483412
G1 X73.587 Y74.184 E3.93763
;WIDTH:0.524157
G1 X73.607 Y73.906 E3.95548
;WIDTH:0.564903
G1 X73.627 Y73.627 E3.97502
G1 X74.069 Y73.607 E4.00592
;WIDTH:0.524157
G1 X74.266 Y73.587 E4.0186
;WIDTH:0.483412
G1 X74.462 Y73.566 E4.03008
;WIDTH:0.442667
G1 X105.538 Y73.566 E5.65891
;WIDTH:0.483412
G1 X105.816 Y73.587 E5.67514
;WIDTH:0.524157
G1 X106.094 Y73.607 E5.69299
;WIDTH:0.564903
G1 X106.373 Y73.627 E5.71253
G1 X106.373 Y73.872 E5.72964
G1 X106.393 Y74.069 E5.74347
;WIDTH:0.524157
G1 X106.413 Y74.266 E5.75615
;WIDTH:0.483412
G1 X106.434 Y74.462 E5.76763
;WIDTH:0.442667
G1 X106.434 Y105.538 E7.39646
;WIDTH:0.448065
G1 X106.431 Y105.662 E7.40306
;WIDTH:0.487011
G1 X106.412 Y105.899 E7.41703
;WIDTH:0.525957
G1 X106.392 Y106.136 E7.43232
;WIDTH:0.564903
G1 X106.378 Y106.313 E7.44472
G1 X106.79 Y106.79 F9000
;TYPE:External perimeter
;WIDTH:0.42
G1 F900
G1 X73.21 Y106.79 E9.09626
G1 X73.21 Y73.21 E10.7478
G1 X106.79 Y73.21 E12.39934
G1 X106.79 Y106.73 E14.04793
G1 X106.404 Y106.686 F9000
G1 E13.54793 F2400
G92 E0
G1 Z.55 F9000
G1 X106.047 Y93.269
G1 X106.047 Y74.114
G1 X105.973 Y74.114
G1 Z.35
G1 E.5 F2400
;TYPE:Perimeter
;WIDTH:0.564903
G1 F900
G1 X105.992 Y74.184 E.50507
;WIDTH:0.524157
G1 X106.029 Y74.323 E.51428
;WIDTH:0.483412
G1 X106.066 Y74.462 E.52266
;WIDTH:0.442667
G1 X106.066 Y105.538 E2.15149
;WIDTH:0.483412
G1 X106.029 Y105.677 E2.15987
;WIDTH:0.524157
G1 X105.992 Y105.816 E2.16908
;WIDTH:0.564903
G1 X105.955 Y105.955 E2.17913
G1 X105.816 Y105.992 E2.18918
;WIDTH:0.524157
G1 X105.677 Y106.029 E2.19839
;WIDTH:0.483412
G1 X105.538 Y106.066 E2.20677
;WIDTH:0.442667
G1 X74.462 Y106.066 E3.8356
;WIDTH:0.483412
G1 X74.323 Y106.029 E3.84398
;WIDTH:0.524157
G1 X74.184 Y105.992 E3.85319
;WIDTH:0.564903
G1 X74.045 Y105.955 E3.86324
G1 X74.008 Y105.816 E3.87329
;WIDTH:0.524157
G1 X73.971 Y105.677 E3.8825
;WIDTH:0.483412
G1 X73.934 Y105.538 E3.89088
;WIDTH:0.442667
G1 X73.934 Y74.462 E5.51971
;WIDTH:0.483412
G1 X73.971 Y74.323 E5.52809
;WIDTH:0.524157
G1 X74.008 Y74.184 E5.5373
;WIDTH:0.564903
G1 X74.045 Y74.045 E5.54735
G1 X74.184 Y74.008 E5.5574
;WIDTH:0.524157
G1 X74.323 Y73.971 E5.56661
;WIDTH:0.483412
G1 X74.462 Y73.934 E5.57499
;WIDTH:0.442667
G1 X105.538 Y73.934 E7.20382
;WIDTH:0.483412
G1 X105.677 Y73.971 E7.2122
;WIDTH:0.524157
G1 X105.816 Y74.008 E7.22141
;WIDTH:0.564903
G1 X105.957 Y74.056 E7.23181
G1 X105.659 Y74.341 F9000
;TYPE:External perimeter
;WIDTH:0.42
G1 F900
G1 X105.71 Y74.462 E7.23827
G1 X105.71 Y105.538 E8.76665
G1 X105.659 Y105.659 E8.77311
G1 X105.538 Y105.71 E8.77957
G1 X74.462 Y105.71 E10.30795
G1 X74.341 Y105.659 E10.31441
G1 X74.29 Y105.538 E10.32087
G1 X74.29 Y74.462 E11.84925
G1 X74.341 Y74.341 E11.85571
G1 X74.462 Y74.29 E11.86217
G1 X105.538 Y74.29 E13.39055
G1 X105.604 Y74.318 E13.39408
G1 X105.787 Y74.306 F9000
G1 E12.89408 F2400
G92 E0
G1 Z.55 F9000
G1 X104.692 Y104.692
G1 Z.35
G1 E.5 F2400
;WIDTH:0.616899
G1 F900
G1 X104.365 Y104.711 E.52531
;WIDTH:0.577227
G1 X104.038 Y104.731 E.54877
;WIDTH:0.537556
G1 X75.962 Y104.731 E2.40027
;WIDTH:0.577227
G1 X75.635 Y104.711 E2.42373
;WIDTH:0.616899
G1 X75.308 Y104.692 E2.44904
G1 X75.289 Y104.365 E2.47435
;WIDTH:0.577227
G1 X75.269 Y104.038 E2.49781
;WIDTH:0.537556
G1 X75.269 Y75.962 E4.34931
;WIDTH:0.577227
G1 X75.289 Y75.635 E4.37277
;WIDTH:0.616899
G1 X75.308 Y75.308 E4.39808
G1 X75.635 Y75.289 E4.42339
;WIDTH:0.577227
G1 X75.962 Y75.269 E4.44685
;WIDTH:0.537556
G1 X104.038 Y75.269 E6.29835
;WIDTH:0.577227
G1 X104.365 Y75.289 E6.32181
;WIDTH:0.616899
G1 X104.692 Y75.308 E6.34712
G1 X104.692 Y75.579 E6.36806
G1 X104.711 Y75.771 E6.38297
;WIDTH:0.577227
G1 X104.731 Y75.962 E6.39672
;WIDTH:0.537556
G1 X104.731 Y104.038 E8.24822
;WIDTH:0.541059
G1 X104.729 Y104.118 E8.25354
;WIDTH:0.578979
G1 X104.711 Y104.405 E8.2742
;WIDTH:0.616899
G1 X104.696 Y104.632 E8.29178
G1 X104.229 Y104.229 F9000
G1 F900
G1 X104.133 Y104.249 E8.29936
;WIDTH:0.577227
G1 X104.038 Y104.269 E8.30631
;WIDTH:0.537556
G1 X75.962 Y104.269 E10.15781
;WIDTH:0.577227
G1 X75.867 Y104.249 E10.16476
;WIDTH:0.616899
G1 X75.771 Y104.229 E10.17234
G1 X75.751 Y104.133 E10.17992
;WIDTH:0.577227
G1 X75.731 Y104.038 E10.18687
;WIDTH:0.537556
G1 X75.731 Y75.962 E12.03837
;WIDTH:0.577227
G1 X75.751 Y75.867 E12.04532
;WIDTH:0.616899
G1 X75.771 Y75.771 E12.0529
G1 X75.867 Y75.751 E12.06048
;WIDTH:0.577227
G1 X75.962 Y75.731 E12.06743
;WIDTH:0.537556
G1 X104.038 Y75.731 E13.91893
;WIDTH:0.577227
G1 X104.133 Y75.751 E13.92588
;WIDTH:0.616899
G1 X104.229 Y75.771 E13.93346
G1 X104.249 Y75.867 E13.94104
;WIDTH:0.577227
G1 X104.269 Y75.962 E13.94799
;WIDTH:0.537556
G1 X104.269 Y104.038 E15.79949
;WIDTH:0.577227
G1 X104.249 Y104.133 E15.80644
;WIDTH:0.616899
G1 X104.241 Y104.17 E15.80936
; stop printing object Tolorance_Test_Squares_Half-mm_clearance.stl id:0 copy 0
EXCLUDE_OBJECT_END NAME=Tolorance_Test_Squares_Half_mm_clearance_stl_id_0_copy_0
;LAYER_CHANGE
;Z:0.6
;HEIGHT:0.25
TIMELAPSE_TAKE_FRAME
G1 E15.30936 F2400
G92 E0
G1 Z.55 F9000
G1 Z.6
G1 Z.8
G1 X105.693 Y104.17
G1 X114.095 Y104.17
G1 Z.6
G1 E.5 F2400
;TYPE:Skirt/Brim
;WIDTH:0.44
G1 F1800
G1 X114.095 Y107 E.61137
G1 X113.697 Y109.341 E.70482
G1 X112.55 Y111.419 E.79823
G1 X110.782 Y113.003 E.89165
G1 X108.59 Y113.914 E.98507
G1 X107 Y114.095 E1.04805
G1 X73 Y114.095 E2.38606
G1 X70.659 Y113.697 E2.47951
G1 X68.581 Y112.55 E2.57292
G1 X66.997 Y110.782 E2.66634
G1 X66.086 Y108.59 E2.75976
G1 X65.905 Y107 E2.82274
G1 X65.905 Y73 E4.16075
G1 X66.303 Y70.659 E4.2542
G1 X67.45 Y68.581 E4.34761
G1 X69.218 Y66.997 E4.44103
G1 X71.41 Y66.086 E4.53445
G1 X73 Y65.905 E4.59743
G1 X107 Y65.905 E5.93544
G1 X109.341 Y66.303 E6.02889
G1 X111.419 Y67.45 E6.1223
G1 X113.003 Y69.218 E6.21572
G1 X113.914 Y71.41 E6.30914
G1 X114.095 Y73 E6.37212
G1 X114.095 Y104.11 E7.5964
G1 X113.73 Y104.11 F9000
G1 F1800
G1 X113.73 Y107 E7.71013
G1 X113.333 Y109.277 E7.80109
G1 X112.189 Y111.286 E7.89207
G1 X110.432 Y112.789 E7.98306
G1 X108.271 Y113.609 E8.07402
G1 X107 Y113.73 E8.12426
G1 X73 Y113.73 E9.46227
G1 X70.723 Y113.333 E9.55323
G1 X68.714 Y112.189 E9.64421
G1 X67.211 Y110.432 E9.7352
G1 X66.391 Y108.271 E9.82616
G1 X66.27 Y107 E9.8764
G1 X66.27 Y73 E11.21441
G1 X66.667 Y70.723 E11.30537
G1 X67.811 Y68.714 E11.39635
G1 X69.568 Y67.211 E11.48734
G1 X71.729 Y66.391 E11.5783
G1 X73 Y66.27 E11.62854
G1 X107 Y66.27 E12.96655
G1 X109.277 Y66.667 E13.05751
G1 X111.286 Y67.811 E13.14849
G1 X112.789 Y69.568 E13.23948
G1 X113.609 Y71.729 E13.33044
G1 X113.73 Y73 E13.38068
G1 X113.73 Y104.05 E14.6026
G1 X113.365 Y104.05 F9000
G1 F1800
G1 X113.365 Y107 E14.71869
G1 X112.968 Y109.212 E14.80713
G1 X111.827 Y111.149 E14.8956
G1 X110.084 Y112.568 E14.98405
G1 X107 Y113.365 E15.1094
G1 X73 Y113.365 E16.44741
G1 X70.788 Y112.968 E16.53585
G1 X68.851 Y111.827 E16.62432
G1 X67.432 Y110.084 E16.71277
G1 X66.635 Y107 E16.83812
G1 X66.635 Y73 E18.17613
G1 X67.032 Y70.788 E18.26457
G1 X68.173 Y68.851 E18.35304
G1 X69.916 Y67.432 E18.44149
G1 X73 Y66.635 E18.56684
G1 X107 Y66.635 E19.90485
G1 X109.212 Y67.032 E19.99329
G1 X111.149 Y68.173 E20.08176
G1 X112.568 Y69.916 E20.17021
G1 X113.365 Y73 E20.29556
G1 X113.365 Y103.99 E21.51512
; printing object Tolorance_Test_Squares_Half-mm_clearance.stl id:0 copy 0
EXCLUDE_OBJECT_START NAME=Tolorance_Test_Squares_Half_mm_clearance_stl_id_0_copy_0
G1 E21.01512 F2400
G92 E0
G1 Z.8 F9000
G1 X106.42 Y106.348
G1 X106.42 Y106.42
G1 X106.366 Y106.42
G1 X106.366 Y106.366
G1 Z.6
G1 E.5 F2400
;TYPE:Perimeter
;WIDTH:0.534553
G1 F5400
G1 X105.926 Y106.387 E.52158
;WIDTH:0.493194
G1 X105.727 Y106.408 E.53054
;WIDTH:0.451835
G1 X105.527 Y106.428 E.53869
;WIDTH:0.410476
G1 X74.473 Y106.428 E1.66738
;WIDTH:0.451835
G1 X74.193 Y106.408 E1.67877
;WIDTH:0.493194
G1 X73.913 Y106.387 E1.69134
;WIDTH:0.534553
G1 X73.634 Y106.366 E1.70505
G1 X73.613 Y105.926 E1.72663
;WIDTH:0.493194
G1 X73.592 Y105.727 E1.73559
;WIDTH:0.451835
G1 X73.572 Y105.527 E1.74374
;WIDTH:0.410476
G1 X73.572 Y74.473 E2.87243
;WIDTH:0.451835
G1 X73.592 Y74.193 E2.88382
;WIDTH:0.493194
G1 X73.613 Y73.913 E2.89639
;WIDTH:0.534553
G1 X73.634 Y73.634 E2.9101
G1 X74.074 Y73.613 E2.93168
;WIDTH:0.493194
G1 X74.273 Y73.592 E2.94064
;WIDTH:0.451835
G1 X74.473 Y73.572 E2.94879
;WIDTH:0.410476
G1 X105.527 Y73.572 E4.07748
;WIDTH:0.451835
G1 X105.807 Y73.592 E4.08887
;WIDTH:0.493194
G1 X106.087 Y73.613 E4.10144
;WIDTH:0.534553
G1 X106.366 Y73.634 E4.11515
G1 X106.366 Y73.874 E4.12691
G1 X106.387 Y74.074 E4.13676
;WIDTH:0.493194
G1 X106.408 Y74.273 E4.14572
;WIDTH:0.451835
G1 X106.428 Y74.473 E4.15387
;WIDTH:0.410476
G1 X106.428 Y105.527 E5.28256
;WIDTH:0.415955
G1 X106.426 Y105.653 E5.28721
;WIDTH:0.455488
G1 X106.406 Y105.891 E5.29699
;WIDTH:0.495021
G1 X106.386 Y106.128 E5.30768
;WIDTH:0.534553
G1 X106.371 Y106.307 E5.31648
G1 X106.79 Y106.79 F9000
;TYPE:External perimeter
;WIDTH:0.419999
G1 F3600
G1 X73.21 Y106.79 E6.56955
G1 X73.21 Y73.21 E7.82262
G1 X106.79 Y73.21 E9.07569
G1 X106.79 Y106.73 E10.32652
G1 X106.404 Y106.686 F9000
G1 E9.82652 F2400
G92 E0
G1 Z.8 F9000
G1 X106.08 Y93.35
G1 X106.08 Y73.92
G1 X105.887 Y73.92
G1 X105.887 Y74.026
G1 Z.6
G1 E.5 F2400
;TYPE:Perimeter
;WIDTH:0.534553
G1 F5400
G1 X105.956 Y74.044 E.50349
G1 X105.994 Y74.187 E.51074
;WIDTH:0.493194
G1 X106.033 Y74.33 E.51738
;WIDTH:0.451835
G1 X106.072 Y74.473 E.52339
;WIDTH:0.410476
G1 X106.072 Y105.527 E1.65208
;WIDTH:0.451835
G1 X106.033 Y105.67 E1.65809
;WIDTH:0.493194
G1 X105.994 Y105.813 E1.66473
;WIDTH:0.534553
G1 X105.956 Y105.956 E1.67198
G1 X105.813 Y105.994 E1.67923
;WIDTH:0.493194
G1 X105.67 Y106.033 E1.68587
;WIDTH:0.451835
G1 X105.527 Y106.072 E1.69188
;WIDTH:0.410476
G1 X74.473 Y106.072 E2.82057
;WIDTH:0.451835
G1 X74.33 Y106.033 E2.82658
;WIDTH:0.493194
G1 X74.187 Y105.994 E2.83322
;WIDTH:0.534553
G1 X74.044 Y105.956 E2.84047
G1 X74.006 Y105.813 E2.84772
;WIDTH:0.493194
G1 X73.967 Y105.67 E2.85436
;WIDTH:0.451835
G1 X73.928 Y105.527 E2.86037
;WIDTH:0.410476
G1 X73.928 Y74.473 E3.98906
;WIDTH:0.451835
G1 X73.967 Y74.33 E3.99507
;WIDTH:0.493194
G1 X74.006 Y74.187 E4.00171
;WIDTH:0.534553
G1 X74.044 Y74.044 E4.00896
G1 X74.187 Y74.006 E4.01621
;WIDTH:0.493194
G1 X74.33 Y73.967 E4.02285
;WIDTH:0.451835
G1 X74.473 Y73.928 E4.02886
;WIDTH:0.410476
G1 X105.527 Y73.928 E5.15755
;WIDTH:0.451835
G1 X105.67 Y73.967 E5.16356
;WIDTH:0.493194
G1 X105.813 Y74.006 E5.1702
;WIDTH:0.534553
G1 X105.829 Y74.01 E5.17101
G1 X105.656 Y74.344 F9000
;TYPE:External perimeter
;WIDTH:0.419999
G1 F3600
G1 X105.71 Y74.473 E5.17623
G1 X105.71 Y105.527 E6.33504
G1 X105.656 Y105.656 E6.34026
G1 X105.527 Y105.71 E6.34548
G1 X74.473 Y105.71 E7.50429
G1 X74.344 Y105.656 E7.50951
G1 X74.29 Y105.527 E7.51473
G1 X74.29 Y74.473 E8.67354
G1 X74.344 Y74.344 E8.67876
G1 X74.473 Y74.29 E8.68398
G1 X105.527 Y74.29 E9.84279
G1 X105.601 Y74.321 E9.84578
G1 X105.792 Y74.307 F9000
G1 E9.34578 F2400
G92 E0
G1 Z.8 F9000
G1 X104.696 Y104.696
G1 Z.6
G1 E.5 F2400
;WIDTH:0.608009
G1 F3600
G1 X104.361 Y104.716 E.51895
;WIDTH:0.567417
G1 X104.027 Y104.737 E.53646
;WIDTH:0.526825
G1 X75.973 Y104.737 E1.88858
;WIDTH:0.567417
G1 X75.639 Y104.716 E1.90609
;WIDTH:0.608008
G1 X75.304 Y104.696 E1.92504
G1 X75.284 Y104.361 E1.94399
;WIDTH:0.567417
G1 X75.263 Y104.027 E1.9615
;WIDTH:0.526825
G1 X75.263 Y75.973 E3.31362
;WIDTH:0.567417
G1 X75.284 Y75.639 E3.33113
;WIDTH:0.608008
G1 X75.304 Y75.304 E3.35008
G1 X75.639 Y75.284 E3.36903
;WIDTH:0.567417
G1 X75.973 Y75.263 E3.38654
;WIDTH:0.526825
G1 X104.027 Y75.263 E4.73866
G1 X104.157 Y75.246 E4.74498
;WIDTH:0.491217
G1 X104.288 Y75.228 E4.75087
;WIDTH:0.455608
G1 X104.419 Y75.21 E4.75628
;WIDTH:0.419999
G1 X104.79 Y75.21 E4.77012
G1 X104.79 Y75.581 E4.78396
;WIDTH:0.455608
G1 X104.772 Y75.712 E4.78937
;WIDTH:0.491217
G1 X104.754 Y75.843 E4.79526
;WIDTH:0.526825
G1 X104.737 Y75.973 E4.80158
G1 X104.737 Y104.027 E6.1537
;WIDTH:0.53041
G1 X104.735 Y104.109 E6.15768
;WIDTH:0.56921
G1 X104.715 Y104.403 E6.17315
;WIDTH:0.608009
G1 X104.7 Y104.636 E6.18633
G1 X104.223 Y104.223 F9000
G1 F3600
G1 X104.125 Y104.243 E6.19198
;WIDTH:0.567417
G1 X104.027 Y104.263 E6.19721
;WIDTH:0.526825
